!!!COM: Haydn, Franz Joseph
!!!OPR: London Symphonies
!!!OTL: Symphonie Nr. 99
!!!XEN: Symphony No. 99 in E-flat major
!!!OMV: Movement 2.
!!!YEC: Copyright 1996, Center for Computer Assisted Research in the Humanities
!!!YEM: Rights to all derivative electronic formats reserved.
!!!YEM: Refer to licensing agreement for further details.
!!
!! Adagio
**kern	**kern	**kern	**kern	**kern	**kern	**kern	**kern	**kern	**kern	**kern	**kern	**kern	**kern	**kern	**kern	**kern	**kern
!Basso	!Violoncello	!Viola	!Violino II	!Violino I	!Timpani in C, G	!Tromba 2 in C	!Tromba 1 in C	!Corno 2 in G	!Corno 1 in G	!Fagotto 2	!Fagotto 1	!Clarinetto 2 in C	!Clarinetto 1 in C	!Oboe 2	!Oboe 1	!Flauto 2	!Flauto 1
*Icbass	*Icello	*Iviola	*Ivioln	*Ivioln	*Itimpa	*Itromp	*Itromp	*Icor	*Icor	*Ifagot	*Ifagot	*Iclars	*Iclars	*Ioboe	*Ioboe	*Iflt	*Iflt
*ICstr	*ICstr	*ICstr	*ICstr	*ICstr	*ICidio	*ICbras	*ICbras	*ICbras	*ICbras	*ICww	*ICww	*ICww	*ICww	*ICww	*ICww	*ICww	*ICww
*clefF4	*clefF4	*clefC3	*clefG2	*clefG2	*clefF4	*clefG2	*clefG2	*clefG2	*clefG2	*clefF4	*clefF4	*clefG2	*clefG2	*clefG2	*clefG2	*clefG2	*clefG2
*k[f#]	*k[f#]	*k[f#]	*k[f#]	*k[f#]	*k[f#]	*k[f#]	*k[f#]	*k[]	*k[]	*k[f#]	*k[f#]	*k[f#]	*k[f#]	*k[f#]	*k[f#]	*k[f#]	*k[f#]
*M3/4	*M3/4	*M3/4	*M3/4	*M3/4	*M3/4	*M3/4	*M3/4	*M3/4	*M3/4	*M3/4	*M3/4	*M3/4	*M3/4	*M3/4	*M3/4	*M3/4	*M3/4
*>[A,A,B]	*>[A,A,B]	*>[A,A,B]	*>[A,A,B]	*>[A,A,B]	*>[A,A,B]	*>[A,A,B]	*>[A,A,B]	*>[A,A,B]	*>[A,A,B]	*>[A,A,B]	*>[A,A,B]	*>[A,A,B]	*>[A,A,B]	*>[A,A,B]	*>[A,A,B]	*>[A,A,B]	*>[A,A,B]
*>A	*>A	*>A	*>A	*>A	*>A	*>A	*>A	*>A	*>A	*>A	*>A	*>A	*>A	*>A	*>A	*>A	*>A
=1-	=1-	=1-	=1-	=1-	=1-	=1-	=1-	=1-	=1-	=1-	=1-	=1-	=1-	=1-	=1-	=1-	=1-
4GGG'/	4GG'/	4G'/	4B'/	4..g'/	2.r	2.r	2.r	2.r	2.r	2.r	2.r	2.r	2.r	2.r	2.r	2.r	2.r
4r	4G'\	4G'/	4B'/	.	.	.	.	.	.	.	.	.	.	.	.	.	.
.	.	.	.	(16d/	.	.	.	.	.	.	.	.	.	.	.	.	.
4r	4r	4r	4r	8.b'\L)	.	.	.	.	.	.	.	.	.	.	.	.	.
.	.	.	.	16b'\Jk	.	.	.	.	.	.	.	.	.	.	.	.	.
=2	=2	=2	=2	=2	=2	=2	=2	=2	=2	=2	=2	=2	=2	=2	=2	=2	=2
2.r	(2c\	(2c\	(2e/	(4b\	2.r	2.r	2.r	2.r	2.r	2.r	2.r	2.r	2.r	2.r	2.r	2.r	2.r
.	.	.	.	4a/	.	.	.	.	.	.	.	.	.	.	.	.	.
.	4B\)	4B/)	4d/)	4g/)	.	.	.	.	.	.	.	.	.	.	.	.	.
=3	=3	=3	=3	=3	=3	=3	=3	=3	=3	=3	=3	=3	=3	=3	=3	=3	=3
[2.DD\	(2A\	(2A/	(2c/	(4g/	2.r	2.r	2.r	2.r	2.r	2.r	2.r	2.r	2.r	2.r	2.r	2.r	2.r
.	.	.	.	8.f#/L)	.	.	.	.	.	.	.	.	.	.	.	.	.
.	.	.	.	16g'/Jk	.	.	.	.	.	.	.	.	.	.	.	.	.
.	4G\)	4G/)	4B/)	(8.gTt/L	.	.	.	.	.	.	.	.	.	.	.	.	.
.	.	.	.	32f#/LL	.	.	.	.	.	.	.	.	.	.	.	.	.
.	.	.	.	32g/JJJ)	.	.	.	.	.	.	.	.	.	.	.	.	.
=4	=4	=4	=4	=4	=4	=4	=4	=4	=4	=4	=4	=4	=4	=4	=4	=4	=4
8DD\]	8F#\	8D/	8A/	8a'/)	2.r	2.r	2.r	2.r	2.r	2.r	2.r	2.r	2.r	4r	4r	2.r	4r
8r	8r	8r	8r	8r	.	.	.	.	.	.	.	.	.	.	.	.	.
4r	4r	4r	4r	4r	.	.	.	.	.	.	.	.	.	4r	4r	.	4r
4r	4r	4r	4r	4r	.	.	.	.	.	.	.	.	.	8.b\L	8.dd\L	.	8.gg\L
.	.	.	.	.	.	.	.	.	.	.	.	.	.	16b\Jk	16dd\Jk	.	16gg\Jk
=5	=5	=5	=5	=5	=5	=5	=5	=5	=5	=5	=5	=5	=5	=5	=5	=5	=5
2.r	2.r	2.r	2.r	2.r	2.r	2.r	2.r	2.r	2.r	2.r	2.d\	2.r	2.r	(2a/	(2cc\	2.r	(4gg\
.	.	.	.	.	.	.	.	.	.	.	.	.	.	.	.	.	8.ff#\L)
.	.	.	.	.	.	.	.	.	.	.	.	.	.	.	.	.	16gg\Jk
.	.	.	.	.	.	.	.	.	.	.	.	.	.	4g/)	4b\)	.	(8.ggTt\L
.	.	.	.	.	.	.	.	.	.	.	.	.	.	.	.	.	32ff#\LL
.	.	.	.	.	.	.	.	.	.	.	.	.	.	.	.	.	32gg\JJJ)
=6	=6	=6	=6	=6	=6	=6	=6	=6	=6	=6	=6	=6	=6	=6	=6	=6	=6
2.r	4r	4r	2.r	2.r	2.r	2.r	2.r	2.r	2.r	2.r	8D'\	2.r	2.r	8f#'/	8a'/	2.r	8aa'\)
.	.	.	.	.	.	.	.	.	.	.	8r	.	.	8r	8r	.	8r
.	4r	4r	.	.	.	.	.	.	.	.	8r	.	.	4r	4r	.	4r
.	.	.	.	.	.	.	.	.	.	.	(8e\L	.	.	.	.	.	.
.	(4FF#/	[4D/	.	.	.	.	.	.	.	.	8d\	.	.	4r	4r	.	4r
.	.	.	.	.	.	.	.	.	.	.	8c\J)	.	.	.	.	.	.
=7	=7	=7	=7	=7	=7	=7	=7	=7	=7	=7	=7	=7	=7	=7	=7	=7	=7
4GGG/	4GG'/)	4D'/]	4B'/	4..g/	2.r	2.r	2.r	2.r	2.r	2.r	4B\	2.r	2.r	2.r	2.r	2.r	2.r
4r	4G'\	4G'/	4B'/	.	.	.	.	.	.	.	4r	.	.	.	.	.	.
.	.	.	.	(16d/	.	.	.	.	.	.	.	.	.	.	.	.	.
4r	4r	4r	4r	8.b\L)	.	.	.	.	.	.	4r	.	.	.	.	.	.
.	.	.	.	16b'\Jk	.	.	.	.	.	.	.	.	.	.	.	.	.
=8	=8	=8	=8	=8	=8	=8	=8	=8	=8	=8	=8	=8	=8	=8	=8	=8	=8
2.r	(2c\	(2c\	(2e/	(4b\	2.r	2.r	2.r	2.r	2.r	2.r	2.r	2.r	2.r	2.r	2.r	2.r	2.r
.	.	.	.	4a/	.	.	.	.	.	.	.	.	.	.	.	.	.
.	4B\)	4B/)	4d/)	4g#/)	.	.	.	.	.	.	.	.	.	.	.	.	.
=9	=9	=9	=9	=9	=9	=9	=9	=9	=9	=9	=9	=9	=9	=9	=9	=9	=9
2.r	4c\	(2c\	4e/	8a'/L	2.r	2.r	2.r	2.r	2.r	2.r	2.r	2.r	2.r	2.r	2.r	2.r	2.r
.	.	.	.	16.a/L	.	.	.	.	.	.	.	.	.	.	.	.	.
.	.	.	.	32b/JJk)	.	.	.	.	.	.	.	.	.	.	.	.	.
.	(4A\	.	8a/L	8cc'\L	.	.	.	.	.	.	.	.	.	.	.	.	.
.	.	.	16.a/L	16.cc\L	.	.	.	.	.	.	.	.	.	.	.	.	.
.	.	.	32b/JJk)	32dd\JJk)	.	.	.	.	.	.	.	.	.	.	.	.	.
.	4G\)	4B/)	8.cc'\L	8.ee'\L	.	.	.	.	.	.	.	.	.	.	.	.	.
.	.	.	16cc'\Jk	16ee'\Jk	.	.	.	.	.	.	.	.	.	.	.	.	.
=10	=10	=10	=10	=10	=10	=10	=10	=10	=10	=10	=10	=10	=10	=10	=10	=10	=10
2.r	(2F#\	4A/	4.cc\	4.ee\	2.r	2.r	2.r	2.r	2.r	2.r	2.r	2.r	2.r	2.r	2.r	2.r	2.r
.	.	2d\	.	.	.	.	.	.	.	.	.	.	.	.	.	.	.
.	.	.	(8b/L	(8dd\L	.	.	.	.	.	.	.	.	.	.	.	.	.
.	4G\)	.	8a/	8cc\	.	.	.	.	.	.	.	.	.	.	.	.	.
.	.	.	8g/J)	8b\J)	.	.	.	.	.	.	.	.	.	.	.	.	.
=11	=11	=11	=11	=11	=11	=11	=11	=11	=11	=11	=11	=11	=11	=11	=11	=11	=11
2.r	4C/	4e\	4e/	8a'/L	2.r	2.r	2.r	2.r	2.r	2.r	2.r	2.r	2.r	2.r	2.r	2.r	2.r
.	.	.	.	16.a/L	.	.	.	.	.	.	.	.	.	.	.	.	.
.	.	.	.	32b/JJk)	.	.	.	.	.	.	.	.	.	.	.	.	.
.	4r	4r	4r	8cc/L	.	.	.	.	.	.	.	.	.	.	.	.	.
.	.	.	.	(8e/	.	.	.	.	.	.	.	.	.	.	.	.	.
.	4D\	(8F#/L	4c/	8a/	.	.	.	.	.	.	.	.	.	.	.	.	.
.	.	8A/J)	.	8f#/J)	.	.	.	.	.	.	.	.	.	.	.	.	.
=12	=12	=12	=12	=12	=12	=12	=12	=12	=12	=12	=12	=12	=12	=12	=12	=12	=12
2.r	4G\	4G'/	4B'/	4b'\)	2.r	2.r	2.r	2.r	2.r	2.r	2.r	2.r	2.r	2.r	2.r	2.r	4r
.	4r	8r	8r	8r	.	.	.	.	.	.	.	.	.	.	.	.	4bb'\)
.	.	(8B'/L	(8g'/L	(8g'/L	.	.	.	.	.	.	.	.	.	.	.	.	.
.	4G\	8B'/	8g'/	8g'/	.	.	.	.	.	.	.	.	.	.	.	.	4r
.	.	8B'/J)	8g'/J)	8g'/J)	.	.	.	.	.	.	.	.	.	.	.	.	.
=13	=13	=13	=13	=13	=13	=13	=13	=13	=13	=13	=13	=13	=13	=13	=13	=13	=13
2.r	4GG/	4A'/	4f#'/	4cc'\)	2.r	2.r	2.r	2.r	2.r	2.r	2.r	2.r	2.r	2.r	2.r	2.r	4r
.	4r	8r	8r	8r	.	.	.	.	.	.	.	.	.	.	.	.	4ccc'\)
.	.	(8c'\L	(8f#'/L	(8a'/L	.	.	.	.	.	.	.	.	.	.	.	.	.
.	4G\	8c'\	8f#'/	8a'/	.	.	.	.	.	.	.	.	.	.	.	.	4r
.	.	8c'\J)	8f#'/J)	8a'/J)	.	.	.	.	.	.	.	.	.	.	.	.	.
=14	=14	=14	=14	=14	=14	=14	=14	=14	=14	=14	=14	=14	=14	=14	=14	=14	=14
2.r	4GG/	4B'/	4g/	4dd'\)	2.r	2.r	2.r	2.r	2.r	2.r	2.r	2.r	2.r	2.r	2.r	2.r	4r
.	4r	8r	8r	8r	.	.	.	.	.	.	.	.	.	.	.	.	4ddd'\)
.	.	(8d'\L	(8g'/L	(8b'\L	.	.	.	.	.	.	.	.	.	.	.	.	.
.	4G\	8d'\	8g'/	8b'\	.	.	.	.	.	.	.	.	.	.	.	.	4r
.	.	8d'\J)	8g'/J)	8b'\J)	.	.	.	.	.	.	.	.	.	.	.	.	.
=15	=15	=15	=15	=15	=15	=15	=15	=15	=15	=15	=15	=15	=15	=15	=15	=15	=15
2EE\	2E/ 2AA/	2G/	2c#/	4bb\)	2.r	2.r	2.r	2g\	2g\	2G\	2c#\	4bb\	4bb\	2.r	2.r	(8.gg\L	(8.gg\L
.	.	.	.	.	.	.	.	.	.	.	.	.	.	.	.	16bb\Jk)	16bb\Jk)
.	.	.	.	(16aa\LL	.	.	.	.	.	.	.	(16aa\LL	(16aa\LL	.	.	(16aa\LL	(16aa\LL
.	.	.	.	16gg\	.	.	.	.	.	.	.	16gg\	16gg\	.	.	16gg\	16gg\
.	.	.	.	16ff#\	.	.	.	.	.	.	.	16ff#\	16ff#\	.	.	16ff#\	16ff#\
.	.	.	.	16ee\JJ)	.	.	.	.	.	.	.	16ee\JJ)	16ee\JJ)	.	.	16ee\JJ)	16ee\JJ)
4AAA/	4A\	4A/	4e/	(16dd\LL	.	.	.	4a\	4a\	4G\	4e\	(16dd\LL	(16dd\LL	.	.	(16dd\LL	(16dd\LL
.	.	.	.	16cc#\	.	.	.	.	.	.	.	16cc#\	16cc#\	.	.	16cc#\	16cc#\
.	.	.	.	16ee\	.	.	.	.	.	.	.	16ee\	16ee\	.	.	16ee\	16ee\
.	.	.	.	16g\JJ)	.	.	.	.	.	.	.	16cc#\JJ)	16cc#\JJ)	.	.	16g\JJ)	16g\JJ)
=16	=16	=16	=16	=16	=16	=16	=16	=16	=16	=16	=16	=16	=16	=16	=16	=16	=16
4DD\	4D\	4A/	(4e/	(4g/	2.r	2.r	2.r	4d/	4a\	(4G\	(4e\	4dd\	4dd\	(4d/	4..dd\	(4g/	(4g/
4r	4r	4r	8d/)	8f#/)	.	.	.	4r	4r	8F#\)	8d\)	4r	4r	4f#/	.	8f#/)	8f#/)
.	.	.	8r	8r	.	.	.	.	.	8r	8r	.	.	.	.	8r	8r
.	.	.	.	.	.	.	.	.	.	.	.	.	.	.	(16a/	.	.
4r	4r	4r	4r	4r	.	.	.	4r	4r	4r	4r	4r	4r	4d/)	8.ff#'\L)	4r	4r
.	.	.	.	.	.	.	.	.	.	.	.	.	.	.	16ff#'\Jk	.	.
=17	=17	=17	=17	=17	=17	=17	=17	=17	=17	=17	=17	=17	=17	=17	=17	=17	=17
2.r	2.r	2.r	2.r	2.r	2.r	2.r	2.r	2.r	2.r	2.r	2.r	2.r	2.r	(2g/	(4ff#\	2.r	4..bbu\
.	.	.	.	.	.	.	.	.	.	.	.	.	.	.	4ee\	.	.
.	.	.	.	.	.	.	.	.	.	.	.	.	.	.	.	.	(16ee\
.	.	.	.	.	.	.	.	.	.	.	.	.	.	4g#/)	4dd\)	.	8.eee'\L)
.	.	.	.	.	.	.	.	.	.	.	.	.	.	.	.	.	16eee'\Jk
=18	=18	=18	=18	=18	=18	=18	=18	=18	=18	=18	=18	=18	=18	=18	=18	=18	=18
2.r	2.r	2.r	2.r	2.r	2.r	2.r	2.r	2.r	2.r	2.r	2.r	2.r	2.r	2a/	(4dd\	2.r	[4eee\
.	.	.	.	.	.	.	.	.	.	.	.	.	.	.	8.cc#\L)	.	16eee\LL]
.	.	.	.	.	.	.	.	.	.	.	.	.	.	.	.	.	(16aa\
.	.	.	.	.	.	.	.	.	.	.	.	.	.	.	.	.	16gg#\
.	.	.	.	.	.	.	.	.	.	.	.	.	.	.	16cc#\Jk	.	16aa\JJ)
.	.	.	.	.	.	.	.	.	.	.	.	.	.	4b\	(8.ddTt\L	.	(16gg#\LL
.	.	.	.	.	.	.	.	.	.	.	.	.	.	.	.	.	16aa\
.	.	.	.	.	.	.	.	.	.	.	.	.	.	.	.	.	16gg#\
.	.	.	.	.	.	.	.	.	.	.	.	.	.	.	32cc#\LL	.	16aa\JJ)
.	.	.	.	.	.	.	.	.	.	.	.	.	.	.	32dd\JJJ)	.	.
=19	=19	=19	=19	=19	=19	=19	=19	=19	=19	=19	=19	=19	=19	=19	=19	=19	=19
2.r	2.r	2.r	2.r	2.r	2.r	2.r	2.r	2.r	2.r	2.r	2.r	2.r	2.r	(2.cc#\	[2.ee\	2.r	(16gg#\LL
.	.	.	.	.	.	.	.	.	.	.	.	.	.	.	.	.	16aa\
.	.	.	.	.	.	.	.	.	.	.	.	.	.	.	.	.	16bb\
.	.	.	.	.	.	.	.	.	.	.	.	.	.	.	.	.	16aa\JJ)
.	.	.	.	.	.	.	.	.	.	.	.	.	.	.	.	.	(16gg#\LL
.	.	.	.	.	.	.	.	.	.	.	.	.	.	.	.	.	16aa\
.	.	.	.	.	.	.	.	.	.	.	.	.	.	.	.	.	16bb\
.	.	.	.	.	.	.	.	.	.	.	.	.	.	.	.	.	16aa\JJ)
.	.	.	.	.	.	.	.	.	.	.	.	.	.	.	.	.	(16ff#\LL
.	.	.	.	.	.	.	.	.	.	.	.	.	.	.	.	.	16gg\
.	.	.	.	.	.	.	.	.	.	.	.	.	.	.	.	.	16aa\
.	.	.	.	.	.	.	.	.	.	.	.	.	.	.	.	.	16gg\JJ)
=20	=20	=20	=20	=20	=20	=20	=20	=20	=20	=20	=20	=20	=20	=20	=20	=20	=20
2.r	2.r	2.r	2.r	2.r	2.r	2.r	2.r	2.r	2.r	2.r	4..d\	2.r	2.r	4dd\)	16ee\LL]	2.r	[4ff#\
.	.	.	.	.	.	.	.	.	.	.	.	.	.	.	(16a\	.	.
.	.	.	.	.	.	.	.	.	.	.	.	.	.	.	16b\	.	.
.	.	.	.	.	.	.	.	.	.	.	.	.	.	.	16cc#\JJ)	.	.
.	.	.	.	.	.	.	.	.	.	.	.	.	.	4r	(16dd\LL	.	16ff#\LL]
.	.	.	.	.	.	.	.	.	.	.	.	.	.	.	16ee\	.	(16gg\
.	.	.	.	.	.	.	.	.	.	.	.	.	.	.	16ff#\	.	16aa\
.	.	.	.	.	.	.	.	.	.	.	(16A\	.	.	.	16ee\JJ)	.	16gg\JJ)
.	.	.	.	.	.	.	.	.	.	.	8.f#'\L)	.	.	4r	(16dd\LL	.	(16ff#\LL
.	.	.	.	.	.	.	.	.	.	.	.	.	.	.	16cc#\	.	16ee\
.	.	.	.	.	.	.	.	.	.	.	.	.	.	.	16b\	.	16dd\
.	.	.	.	.	.	.	.	.	.	.	16f#'\Jk	.	.	.	16a\JJ)	.	16cc#\JJ)
=21	=21	=21	=21	=21	=21	=21	=21	=21	=21	=21	=21	=21	=21	=21	=21	=21	=21
2.r	2.r	2.r	2.r	2.r	2.r	2.r	2.r	2.r	2.r	2.r	4f#\	2.r	2.r	2.r	[2.g/	2.r	(16b\LL
.	.	.	.	.	.	.	.	.	.	.	.	.	.	.	.	.	16cc#\
.	.	.	.	.	.	.	.	.	.	.	.	.	.	.	.	.	16dd\
.	.	.	.	.	.	.	.	.	.	.	.	.	.	.	.	.	16dd#\JJ)
.	.	.	.	.	.	.	.	.	.	.	(4e\	.	.	.	.	.	(16ee\LL
.	.	.	.	.	.	.	.	.	.	.	.	.	.	.	.	.	16ff#\
.	.	.	.	.	.	.	.	.	.	.	.	.	.	.	.	.	16gg\
.	.	.	.	.	.	.	.	.	.	.	.	.	.	.	.	.	16gg#\JJ)
.	.	.	.	.	.	.	.	.	.	.	4d\)	.	.	.	.	.	(16aa\LL
.	.	.	.	.	.	.	.	.	.	.	.	.	.	.	.	.	16aa#\
.	.	.	.	.	.	.	.	.	.	.	.	.	.	.	.	.	16bb\)
.	.	.	.	.	.	.	.	.	.	.	.	.	.	.	.	.	16bb'\JJ
=22	=22	=22	=22	=22	=22	=22	=22	=22	=22	=22	=22	=22	=22	=22	=22	=22	=22
2.r	2.r	2.r	2.r	2.r	2.r	2.r	2.r	2.r	2.r	2.r	2c#\	2.r	2.r	2.r	4g/]	2.r	(4.bb\
.	.	.	.	.	.	.	.	.	.	.	.	.	.	.	4gg\	.	.
.	.	.	.	.	.	.	.	.	.	.	.	.	.	.	.	.	8bb-\L)
.	.	.	.	.	.	.	.	.	.	.	8d\L	.	.	.	(16ff#\LL	.	8aa\
.	.	.	.	.	.	.	.	.	.	.	.	.	.	.	16cc#\	.	.
.	.	.	.	.	.	.	.	.	.	.	8F#\J	.	.	.	16ee\	.	8aa\J
.	.	.	.	.	.	.	.	.	.	.	.	.	.	.	16dd\JJ)	.	.
=23	=23	=23	=23	=23	=23	=23	=23	=23	=23	=23	=23	=23	=23	=23	=23	=23	=23
2.r	2.r	2.r	2.r	2.r	2.r	2.r	2.r	2.r	2.r	2.r	4G\	2.r	2.r	2.r	(16cc#/LL	2.r	(16aa\LL
.	.	.	.	.	.	.	.	.	.	.	.	.	.	.	16b/	.	16gg\
.	.	.	.	.	.	.	.	.	.	.	.	.	.	.	16a/	.	16ff#\
.	.	.	.	.	.	.	.	.	.	.	.	.	.	.	16g/JJ)	.	16ee\JJ)
.	.	.	.	.	.	.	.	.	.	.	2A\	.	.	.	(4f#/	.	[4dd\
.	.	.	.	.	.	.	.	.	.	.	.	.	.	.	4g/)	.	(16dd\LL]
.	.	.	.	.	.	.	.	.	.	.	.	.	.	.	.	.	16cc#\
.	.	.	.	.	.	.	.	.	.	.	.	.	.	.	.	.	16ff#\
.	.	.	.	.	.	.	.	.	.	.	.	.	.	.	.	.	16ee\JJ)
=24	=24	=24	=24	=24	=24	=24	=24	=24	=24	=24	=24	=24	=24	=24	=24	=24	=24
2.r	2.r	2.r	2.r	2.r	2.r	2.r	2.r	2.r	2.r	2.r	2.r	2.r	2.r	4r	(2gg\	2.r	(4.bb\
.	.	.	.	.	.	.	.	.	.	.	.	.	.	(4cc#\	.	.	.
.	.	.	.	.	.	.	.	.	.	.	.	.	.	.	.	.	8bb-\L)
.	.	.	.	.	.	.	.	.	.	.	.	.	.	4dd\)	4ff#\)	.	8aa\
.	.	.	.	.	.	.	.	.	.	.	.	.	.	.	.	.	8aa\J
=25	=25	=25	=25	=25	=25	=25	=25	=25	=25	=25	=25	=25	=25	=25	=25	=25	=25
2.r	2.r	2.r	2.r	2.r	2.r	2.r	2.r	2.r	2.r	2.r	4..A\	2.r	2.r	(4ee\	(4gg\	2.r	(4ccc#\
.	.	.	.	.	.	.	.	.	.	.	.	.	.	(2dd\)	4ff#\)	.	4ddd\)
.	.	.	.	.	.	.	.	.	.	.	(16D\	.	.	.	.	.	.
.	.	.	.	.	.	.	.	.	.	.	8.B'\L)	.	.	.	(4ee#\	.	(4gg#\
.	.	.	.	.	.	.	.	.	.	.	16B'\Jk	.	.	.	.	.	.
=26	=26	=26	=26	=26	=26	=26	=26	=26	=26	=26	=26	=26	=26	=26	=26	=26	=26
2.r	2.r	2.r	2.r	2.r	2.r	2.r	2.r	2.r	2.r	2.r	8A'\	2.r	2.r	8dd'\)	8ff#'\)	2.r	8aa'\)
.	.	.	.	.	.	.	.	.	.	.	8r	.	.	8r	8r	.	8r
.	.	.	.	.	.	.	.	.	.	.	4r	.	.	4r	4r	.	4r
.	.	.	.	.	.	.	.	.	.	.	8A'\	.	.	8e'/	8g'/	.	8cc#'\
.	.	.	.	.	.	.	.	.	.	.	8r	.	.	8r	8r	.	8r
=27	=27	=27	=27	=27	=27	=27	=27	=27	=27	=27	=27	=27	=27	=27	=27	=27	=27
(2DD\	(2D\	(16f#\LL	(16d/LL	2ff#\	2.r	2.r	2.r	[2.a\	[2.a\	2.r	2f#\	(2a/	(2ff#\	[2.a/	2ff#\	2.r	(4dd\
.	.	16A\	16A/	.	.	.	.	.	.	.	.	.	.	.	.	.	.
.	.	16f#\	16d/	.	.	.	.	.	.	.	.	.	.	.	.	.	.
.	.	16A\JJ)	16A/JJ)	.	.	.	.	.	.	.	.	.	.	.	.	.	.
.	.	(16f#\LL	(16d/LL	.	.	.	.	.	.	.	.	.	.	.	.	.	4aa\
.	.	16A\	16A/	.	.	.	.	.	.	.	.	.	.	.	.	.	.
.	.	16d\	16d/	.	.	.	.	.	.	.	.	.	.	.	.	.	.
.	.	16A\JJ)	16A/JJ)	.	.	.	.	.	.	.	.	.	.	.	.	.	.
4AAA/)	4AA/)	(16c#\LL	(16g/LL	(16ee\LL)	.	.	.	.	.	.	(16e\LL)	4g/)	4cc#\)	.	(16ee\LL)	.	4ccc#\)
.	.	16d\	16f#/	16dd\	.	.	.	.	.	.	16d\	.	.	.	16dd\	.	.
.	.	16c#\	16g/	16ee\	.	.	.	.	.	.	16e\	.	.	.	16ee\	.	.
.	.	16e\JJ)	16e/JJ)	16cc#\JJ)	.	.	.	.	.	.	16c#\JJ)	.	.	.	16cc#\JJ)	.	.
=28	=28	=28	=28	=28	=28	=28	=28	=28	=28	=28	=28	=28	=28	=28	=28	=28	=28
4DDD/	4DD/	4d\	4f#/	16dd\LL	2.r	2.r	2.r	4a\]	4a\]	2.r	16d\LL	4f#/	4dd\	4a/]	16dd\LL	2.r	4ddd\
.	.	.	.	16a'\	.	.	.	.	.	.	16A'\	.	.	.	16a'\	.	.
.	.	.	.	16a'\	.	.	.	.	.	.	16A'\	.	.	.	16a'\	.	.
.	.	.	.	16a'\JJ	.	.	.	.	.	.	16A'\JJ	.	.	.	16a'\JJ	.	.
4r	4r	4r	4r	(16g#/LL	.	.	.	4r	4r	.	(16G#\LL	4r	4r	4r	(16g#/LL	.	4r
.	.	.	.	16a/	.	.	.	.	.	.	16A\	.	.	.	16a/	.	.
.	.	.	.	16b/	.	.	.	.	.	.	16B\	.	.	.	16b/	.	.
.	.	.	.	16cc#/JJ	.	.	.	.	.	.	16c#\JJ	.	.	.	16cc#/JJ	.	.
4r	4r	4r	4r	16dd\LL	.	.	.	4r	4r	.	16d\LL	4r	4r	4r	16dd/LL	.	4r
.	.	.	.	16ee\	.	.	.	.	.	.	16e\	.	.	.	16ee/	.	.
.	.	.	.	16ff\	.	.	.	.	.	.	16f\	.	.	.	16ff/	.	.
.	.	.	.	16ff#\JJ)	.	.	.	.	.	.	16f#\JJ)	.	.	.	16ff#/JJ)	.	.
=29	=29	=29	=29	=29	=29	=29	=29	=29	=29	=29	=29	=29	=29	=29	=29	=29	=29
(2CC#/	(2C#/	(16A\LL	(16e/LL	2gg\	2.r	2.r	2.r	[2.a\	[2.a\	2.r	2g\	(2ee\	(2gg\	[2.a/	2gg\	2.r	(4aa\
.	.	16e\	16A/	.	.	.	.	.	.	.	.	.	.	.	.	.	.
.	.	16A\	16e/	.	.	.	.	.	.	.	.	.	.	.	.	.	.
.	.	16e\JJ)	16A/JJ)	.	.	.	.	.	.	.	.	.	.	.	.	.	.
.	.	(16A\LL	(16e/LL	.	.	.	.	.	.	.	.	.	.	.	.	.	4eee\
.	.	16e\	16A/	.	.	.	.	.	.	.	.	.	.	.	.	.	.
.	.	16A\	16e/	.	.	.	.	.	.	.	.	.	.	.	.	.	.
.	.	16e\JJ)	16A/JJ)	.	.	.	.	.	.	.	.	.	.	.	.	.	.
4DD\)	4D\)	(16A\LL	(16d/LL	(16ff#\LL)	.	.	.	.	.	.	(16f#\LL)	4dd\)	4ff#\)	.	(16ff#\LL)	.	4ddd\)
.	.	16a\	16c#/	16ee\	.	.	.	.	.	.	16e\	.	.	.	16ee\	.	.
.	.	16A\	16d/	16ff#\	.	.	.	.	.	.	16f#\	.	.	.	16ff#\	.	.
.	.	16a\JJ)	16f#/JJ)	16dd\JJ)	.	.	.	.	.	.	16d\JJ)	.	.	.	16dd\JJ)	.	.
=30	=30	=30	=30	=30	=30	=30	=30	=30	=30	=30	=30	=30	=30	=30	=30	=30	=30
4AAA/	4AA/	4A/	4a/	16ee\LL	2.r	2.r	2.r	4a\]	4a\]	2.r	16e\LL	4cc#\	4ee\	4a/]	16ee\LL	2.r	4ccc#\
.	.	.	.	16a'\	.	.	.	.	.	.	16A'\	.	.	.	16a'\	.	.
.	.	.	.	16a'\	.	.	.	.	.	.	16A'\	.	.	.	16a'\	.	.
.	.	.	.	16a'\JJ	.	.	.	.	.	.	16A'\JJ	.	.	.	16a'\JJ	.	.
4r	4r	4r	4r	(16g#/LL	.	.	.	4r	4r	.	(16G#\LL	4r	4r	4r	(16g#/LL	.	4r
.	.	.	.	16a/	.	.	.	.	.	.	16A\	.	.	.	16a/	.	.
.	.	.	.	16b/	.	.	.	.	.	.	16B\	.	.	.	16b/	.	.
.	.	.	.	16cc#/JJ	.	.	.	.	.	.	16c#\JJ	.	.	.	16cc#/JJ	.	.
4r	4r	4r	4r	16dd\LL	.	.	.	4r	4r	.	16d\LL	4r	4r	4r	16dd/LL	.	4r
.	.	.	.	16ee\	.	.	.	.	.	.	16e\	.	.	.	16ee/	.	.
.	.	.	.	16ff#\	.	.	.	.	.	.	16f#\	.	.	.	16ff#/	.	.
.	.	.	.	16gg\JJ)	.	.	.	.	.	.	16g\JJ)	.	.	.	16gg/JJ)	.	.
=31	=31	=31	=31	=31	=31	=31	=31	=31	=31	=31	=31	=31	=31	=31	=31	=31	=31
(2FF#\	(2F#\	(16dd\LL	(16d/LL	2aa\	2.r	2.r	2.r	(2d/	(2a\	2.r	2a\	(2a/	(2dd\	2dd\	2aa\	2.dd\	2ddd\
.	.	16d\	16a/	.	.	.	.	.	.	.	.	.	.	.	.	.	.
.	.	16dd\	16d/	.	.	.	.	.	.	.	.	.	.	.	.	.	.
.	.	16d\JJ)	16a/JJ)	.	.	.	.	.	.	.	.	.	.	.	.	.	.
.	.	(16dd\LL	(16d/LL	.	.	.	.	.	.	.	.	.	.	.	.	.	.
.	.	16d\	16a/	.	.	.	.	.	.	.	.	.	.	.	.	.	.
.	.	16dd\	16d/	.	.	.	.	.	.	.	.	.	.	.	.	.	.
.	.	16d\JJ)	16a/JJ)	.	.	.	.	.	.	.	.	.	.	.	.	.	.
4GG\)	4G\)	(16dd\LL	(16b/LL	(16gg\LL)	.	.	.	4g\)	4b\)	.	(16g\LL)	4b\)	4ee\)	16b/LL	(16gg\LL)	.	(8bb\L
.	.	16d\	16a/	16ff#\	.	.	.	.	.	.	16f#\	.	.	16a/	16ff#\	.	.
.	.	16dd\	16b/	16gg\	.	.	.	.	.	.	16g\	.	.	16b/	16gg\	.	8gg\J)
.	.	16d\JJ)	16a/JJ)	16ee\JJ)	.	.	.	.	.	.	16e\JJ)	.	.	16g/JJ	16ee\JJ)	.	.
=32	=32	=32	=32	=32	=32	=32	=32	=32	=32	=32	=32	=32	=32	=32	=32	=32	=32
2AA\	2A\	(16a\LL	(16f#/LL	2dd\	2.r	2.r	2.r	2.a\	2.a\	2.r	2d\	(2dd\	(2ff#\	2f#/	2dd\	2dd\	2ff#\
.	.	16f#\	16d/	.	.	.	.	.	.	.	.	.	.	.	.	.	.
.	.	16a\	16f#/	.	.	.	.	.	.	.	.	.	.	.	.	.	.
.	.	16f#\JJ)	16d/JJ)	.	.	.	.	.	.	.	.	.	.	.	.	.	.
.	.	(16a\LL	(16f#/LL	.	.	.	.	.	.	.	.	.	.	.	.	.	.
.	.	16f#\	16d/	.	.	.	.	.	.	.	.	.	.	.	.	.	.
.	.	16a\	16f#/	.	.	.	.	.	.	.	.	.	.	.	.	.	.
.	.	16f#\JJ)	16d/JJ)	.	.	.	.	.	.	.	.	.	.	.	.	.	.
4AAA/	4AA/	(16e\LL	(16g/LL	(16ee\LL)	.	.	.	.	.	.	(16e\LL)	4cc#\)	4ee\)	(16g/LL	(16ee\LL)	4cc#\	(8gg\L
.	.	16f#\	16f#/	16dd\	.	.	.	.	.	.	16d\	.	.	16f#/	16dd\	.	.
.	.	16e\	16g/	16ee\	.	.	.	.	.	.	16e\	.	.	16g/	16ee\	.	8ee\J)
.	.	16g\JJ)	16e/JJ)	16cc#\JJ)	.	.	.	.	.	.	16c#\JJ)	.	.	16e/JJ)	16cc#\JJ)	.	.
=33	=33	=33	=33	=33	=33	=33	=33	=33	=33	=33	=33	=33	=33	=33	=33	=33	=33
!! Considered adding "zu 2" for m.33-34. (Other winds are doubled.)        
8DD'/L	8D'/L	8f#'\L	8f#'/L	(16dd\LL	2.r	2.r	2.r	4d/	4a\	2.r	(16d\LL	8dd'\L	8dd'\L	8f#/L	(16dd\LL	8dd'\L	8dd'\L
.	.	.	.	16a\)	.	.	.	.	.	.	16A\)	.	.	.	16a\)	.	.
16r	16r	16r	16r	16ee'\	.	.	.	.	.	.	16e'\	16r	16r	16r	16ee'\	16r	16r
16AAA'/Jk	16AA'/Jk	16e'\Jk	16g'/Jk	16cc#'\JJ	.	.	.	.	.	.	16c#'\JJ	16ee'\Jk	16gg'\Jk	16g/Jk	16cc#'\JJ	16ccc#'\Jk	16ccc#'\Jk
8DD'/L	8D'/L	8f#'\L	8f#'/L	(16dd\LL	.	.	.	4r	4r	.	(16d\LL	8dd'\L	8ff#'\L	8f#/L	(16dd\LL	8ddd'\L	8ddd'\L
.	.	.	.	16a\)	.	.	.	.	.	.	16A\)	.	.	.	16a\)	.	.
16r	16r	16r	16r	16ee'\	.	.	.	.	.	.	16e'\	16r	16r	16r	16ee'\	16r	16r
16AAA'/Jk	16AA'/Jk	16e'\Jk	16g'/Jk	16cc#'\JJ	.	.	.	.	.	.	16c#'\JJ	16ee'\Jk	16gg'\Jk	16g/Jk	16cc#'\JJ	16ccc#'\Jk	16ccc#'\Jk
8DD'/L	8D'/L	8f#'\L	8f#'/L	(16dd\LL	.	.	.	4r	4r	.	(16d\LL	8dd'\L	8ff#'\L	8f#/L	(16dd\LL	8ddd'\L	8ddd'\L
.	.	.	.	16a\)	.	.	.	.	.	.	16A\)	.	.	.	16a\)	.	.
16r	16r	16r	16r	16ee'\	.	.	.	.	.	.	16e'\	16r	16r	16r	16ee'\	16r	16r
16AAA'/Jk	16AA'/Jk	16e'\Jk	16g'/Jk	16cc#'\JJ	.	.	.	.	.	.	16c#'\JJ	16ee'\Jk	16gg'\Jk	16g/Jk	16cc#'\JJ	16ccc#'\Jk	16ccc#'\Jk
=34	=34	=34	=34	=34	=34	=34	=34	=34	=34	=34	=34	=34	=34	=34	=34	=34	=34
8DD\	8D\	8f#\	8f#/	8dd\	2.r	2.r	2.r	4r	4r	2.r	8d\	8dd\	8ff#\	8f#/	8dd\	8ddd\	8ddd\
8r	8r	8r	8r	8r	.	.	.	.	.	.	8r	8r	8r	8r	8r	8r	8r
4DD\	4D\	4f#/ 4A/ 4D/	4ff#/ 4a/ 4d/	4ddd\ 4ff#\ 4d\	.	.	.	4d/	4a\	.	4D\	4dd\	4ff#\	4ff#\	4ddd\	4ddd\	4ddd\
4r	4r	4r	4r	4r	.	.	.	4r	4r	.	4r	4r	4r	4r	4r	4r	4r
=35:||	=35:||	=35:||	=35:||	=35:||	=35:||	=35:||	=35:||	=35:||	=35:||	=35:||	=35:||	=35:||	=35:||	=35:||	=35:||	=35:||	=35:||
*>B	*>B	*>B	*>B	*>B	*>B	*>B	*>B	*>B	*>B	*>B	*>B	*>B	*>B	*>B	*>B	*>B	*>B
8FF'\L	8F'\L	2.r	(16d/LL	[2.aa\	2.r	2.r	2.r	2.r	2.r	2.r	2.r	2.r	2.r	2.r	2.r	2.r	2.r
.	.	.	16A/)	.	.	.	.	.	.	.	.	.	.	.	.	.	.
16r	16r	.	16e'/	.	.	.	.	.	.	.	.	.	.	.	.	.	.
16GG'\Jk	16G'\Jk	.	16c#'/JJ	.	.	.	.	.	.	.	.	.	.	.	.	.	.
8FF'\L	8F'\L	.	(16d/LL	.	.	.	.	.	.	.	.	.	.	.	.	.	.
.	.	.	16A/)	.	.	.	.	.	.	.	.	.	.	.	.	.	.
16r	16r	.	16e'/	.	.	.	.	.	.	.	.	.	.	.	.	.	.
16GG'\Jk	16G'\Jk	.	16c#'/JJ	.	.	.	.	.	.	.	.	.	.	.	.	.	.
8FF'\L	8F'\L	.	(16d/LL	.	.	.	.	.	.	.	.	.	.	.	.	.	.
.	.	.	16A/)	.	.	.	.	.	.	.	.	.	.	.	.	.	.
16r	16r	.	16e'/	.	.	.	.	.	.	.	.	.	.	.	.	.	.
16GG'\Jk	16G'\Jk	.	16c#'/JJ	.	.	.	.	.	.	.	.	.	.	.	.	.	.
=36	=36	=36	=36	=36	=36	=36	=36	=36	=36	=36	=36	=36	=36	=36	=36	=36	=36
4FF\	4F\	2.r	(16d/LL	(8aa\L]	2.r	2.r	2.r	2.r	2.r	2.r	2.r	2.r	2.r	2.r	2.r	2.r	2.r
.	.	.	16A/	.	.	.	.	.	.	.	.	.	.	.	.	.	.
.	.	.	16e/	8gg\	.	.	.	.	.	.	.	.	.	.	.	.	.
.	.	.	16A/JJ)	.	.	.	.	.	.	.	.	.	.	.	.	.	.
4r	4r	.	(16f/LL	8ff\	.	.	.	.	.	.	.	.	.	.	.	.	.
.	.	.	16A/	.	.	.	.	.	.	.	.	.	.	.	.	.	.
.	.	.	16g/	8ee\	.	.	.	.	.	.	.	.	.	.	.	.	.
.	.	.	16A/JJ)	.	.	.	.	.	.	.	.	.	.	.	.	.	.
4r	4r	.	(16f/LL	8dd\	.	.	.	.	.	.	.	.	.	.	.	.	.
.	.	.	16A/	.	.	.	.	.	.	.	.	.	.	.	.	.	.
.	.	.	16e/	8cc#\J)	.	.	.	.	.	.	.	.	.	.	.	.	.
.	.	.	16A/JJ)	.	.	.	.	.	.	.	.	.	.	.	.	.	.
=37	=37	=37	=37	=37	=37	=37	=37	=37	=37	=37	=37	=37	=37	=37	=37	=37	=37
8FF\L	8F\L	(16A/LL	(16d/LL	2.dd\	2.r	2.r	2.r	2.r	2.r	2.r	2.r	2.r	2.r	2.r	2.dd\	2.r	2.r
.	.	16d/	16A/	.	.	.	.	.	.	.	.	.	.	.	.	.	.
8FF\	8F\	16A/	16d/	.	.	.	.	.	.	.	.	.	.	.	.	.	.
.	.	16d/JJ)	16A/JJ)	.	.	.	.	.	.	.	.	.	.	.	.	.	.
8FF\	8F\	(16A/LL	(16d/LL	.	.	.	.	.	.	.	.	.	.	.	.	.	.
.	.	16d/	16A/	.	.	.	.	.	.	.	.	.	.	.	.	.	.
8FF\	8F\	16A/	16d/	.	.	.	.	.	.	.	.	.	.	.	.	.	.
.	.	16d/JJ)	16A/JJ)	.	.	.	.	.	.	.	.	.	.	.	.	.	.
8FF\	8F\	(16A/LL	(16d/LL	.	.	.	.	.	.	.	.	.	.	.	.	.	.
.	.	16d/	16A/	.	.	.	.	.	.	.	.	.	.	.	.	.	.
8FF\J	8F\J	16A/	16d/	.	.	.	.	.	.	.	.	.	.	.	.	.	.
.	.	16d/JJ)	16A/JJ)	.	.	.	.	.	.	.	.	.	.	.	.	.	.
=38	=38	=38	=38	=38	=38	=38	=38	=38	=38	=38	=38	=38	=38	=38	=38	=38	=38
8FF\L	8F\L	(16A/LL	(16c/LL	2.ee-\	2.r	2.r	2.r	2.r	2.r	2.r	2.r	2.r	2.r	2.cc\	2.ee-\	2.r	2.r
.	.	16c/	16A/	.	.	.	.	.	.	.	.	.	.	.	.	.	.
8FF\	8F\	16A/	16c/	.	.	.	.	.	.	.	.	.	.	.	.	.	.
.	.	16c/JJ)	16A/JJ)	.	.	.	.	.	.	.	.	.	.	.	.	.	.
8FF\	8F\	(16A/LL	(16c/LL	.	.	.	.	.	.	.	.	.	.	.	.	.	.
.	.	16c/	16A/	.	.	.	.	.	.	.	.	.	.	.	.	.	.
8FF\	8F\	16A/	16c/	.	.	.	.	.	.	.	.	.	.	.	.	.	.
.	.	16c/JJ)	16A/JJ)	.	.	.	.	.	.	.	.	.	.	.	.	.	.
8FF\	8F\	(16A/LL	(16c/LL	.	.	.	.	.	.	.	.	.	.	.	.	.	.
.	.	16c/	16A/	.	.	.	.	.	.	.	.	.	.	.	.	.	.
8FF\J	8F\J	16A/	16c/	.	.	.	.	.	.	.	.	.	.	.	.	.	.
.	.	16c/JJ)	16A/JJ)	.	.	.	.	.	.	.	.	.	.	.	.	.	.
=39	=39	=39	=39	=39	=39	=39	=39	=39	=39	=39	=39	=39	=39	=39	=39	=39	=39
8EE\L	8c\L 8E\	(16A/LL	(16c/LL	2.ee\	2.r	2.r	2.r	2.r	2.r	2.A\	2.c\	[2.cc\	2.ee\	2.cc\	2.ee\	2.aa\	2.aa\
.	.	16c/	16A/	.	.	.	.	.	.	.	.	.	.	.	.	.	.
8EE\	8c\ 8E\	16A/	16c/	.	.	.	.	.	.	.	.	.	.	.	.	.	.
.	.	16c/JJ)	16A/JJ)	.	.	.	.	.	.	.	.	.	.	.	.	.	.
8EE\	8c\ 8E\	(16A/LL	(16c/LL	.	.	.	.	.	.	.	.	.	.	.	.	.	.
.	.	16c/	16A/	.	.	.	.	.	.	.	.	.	.	.	.	.	.
8EE\	8c\ 8E\	16A/	16c/	.	.	.	.	.	.	.	.	.	.	.	.	.	.
.	.	16c/JJ)	16A/JJ)	.	.	.	.	.	.	.	.	.	.	.	.	.	.
8EE\	8c\ 8E\	(16A/LL	(16c/LL	.	.	.	.	.	.	.	.	.	.	.	.	.	.
.	.	16c/	16A/	.	.	.	.	.	.	.	.	.	.	.	.	.	.
8EE\J	8c\J 8E\	16A/	16c/	.	.	.	.	.	.	.	.	.	.	.	.	.	.
.	.	16c/JJ)	16A/JJ)	.	.	.	.	.	.	.	.	.	.	.	.	.	.
=40	=40	=40	=40	=40	=40	=40	=40	=40	=40	=40	=40	=40	=40	=40	=40	=40	=40
8EE\L	8c\L 8E\	(16B-/LL	(16c/LL	[2.gg\	16C/LL	[2.cc\	[2.cc\	2.g\	2.g\	2.C/	2.B-\	2.cc\]	2.bb-\	2.b-\	[2.gg\	2.bb-\	2.bb-\
.	.	16c/	16B-/	.	16C/	.	.	.	.	.	.	.	.	.	.	.	.
8EE\	8c\ 8E\	16B-/	16c/	.	16C/	.	.	.	.	.	.	.	.	.	.	.	.
.	.	16c/JJ)	16B-/JJ)	.	16C/	.	.	.	.	.	.	.	.	.	.	.	.
8EE\	8c\ 8E\	(16B-/LL	(16c/LL	.	16C/	.	.	.	.	.	.	.	.	.	.	.	.
.	.	16c/	16B-/	.	16C/	.	.	.	.	.	.	.	.	.	.	.	.
8EE\	8c\ 8E\	16B-/	16c/	.	16C/	.	.	.	.	.	.	.	.	.	.	.	.
.	.	16c/JJ)	16B-/JJ)	.	16C/	.	.	.	.	.	.	.	.	.	.	.	.
8EE\	8c\ 8E\	(16B-/LL	(16c/LL	.	16C/	.	.	.	.	.	.	.	.	.	.	.	.
.	.	16c/	16B-/	.	16C/	.	.	.	.	.	.	.	.	.	.	.	.
8EE\J	8c\J 8E\	16B-/	16c/	.	16C/	.	.	.	.	.	.	.	.	.	.	.	.
.	.	16c/JJ)	16B-/JJ)	.	16C/JJ	.	.	.	.	.	.	.	.	.	.	.	.
=41	=41	=41	=41	=41	=41	=41	=41	=41	=41	=41	=41	=41	=41	=41	=41	=41	=41
8FF\L	8F\L	(16A/LL	(16c/LL	4gg\]	4C/	(4cc\]	(4cc\]	2.a\	2.a\	(4F\	(4A\	(4cc\	(4aa\	(4a/	(4gg\]	(4aa\	(4aa\
.	.	16c/	16A/	.	.	.	.	.	.	.	.	.	.	.	.	.	.
8FF\	8F\	16A/	16c/	.	.	.	.	.	.	.	.	.	.	.	.	.	.
.	.	16c/JJ)	16A/JJ)	.	.	.	.	.	.	.	.	.	.	.	.	.	.
8FF\	8F\	(16A/LL	(16d/LL	4ff\	4r	4dd\	4dd\	.	.	4d\	4f\	4dd\	4ff\	4dd\	4ff\	4ff\	4ddd\
.	.	16d/	16A/	.	.	.	.	.	.	.	.	.	.	.	.	.	.
8FF\	8F\	16A/	16d/	.	.	.	.	.	.	.	.	.	.	.	.	.	.
.	.	16d/JJ)	16A/JJ)	.	.	.	.	.	.	.	.	.	.	.	.	.	.
8FF#\	8F#\	(16A/LL	(16c/LL	4ee\	4r	4cc\)	4ee\)	.	.	4c\)	4e\)	4cc\)	4ee\)	4cc\)	4ee\)	4ee\)	4ccc\)
.	.	16c/	16A/	.	.	.	.	.	.	.	.	.	.	.	.	.	.
8FF#\J	8F#\J	16A/	16c/	.	.	.	.	.	.	.	.	.	.	.	.	.	.
.	.	16c/JJ)	16A/JJ)	.	.	.	.	.	.	.	.	.	.	.	.	.	.
=42	=42	=42	=42	=42	=42	=42	=42	=42	=42	=42	=42	=42	=42	=42	=42	=42	=42
4.GG\	4.G\	(16G/LL	(16c/LL	(16ff\LL	16GG/LL	(4cc\	(4ee\	4.g\	4.g\	4c\	(4e\	(16dd\LL	(16ff\LL	(4cc\	(16ff\LL	(16ff\LL	(16ddd\LL
.	.	16c/	16G/	16ee\	16GG/	.	.	.	.	.	.	16cc\	16ee\	.	16ee\	16ee\	16ccc\
.	.	16G/	16c/	16dd\	16GG/	.	.	.	.	.	.	16b\	16dd\	.	16dd\	16dd\	16bb\
.	.	16c/JJ)	16G/JJ)	16ee\JJ)	16GG/JJ	.	.	.	.	.	.	16cc\JJ)	16ee\JJ)	.	16ee\JJ)	16ee\JJ)	16ccc\JJ)
.	.	(16G/LL	(16B/LL	8dd\	4GG/	4g/)	4dd\)	.	.	8B\	8d\)	8b\	8dd\	8b\)	8dd\	8dd\	8bb\
.	.	16B/	16G/	.	.	.	.	.	.	.	.	.	.	.	.	.	.
(8FF\L	(8F\L	16G/	16B/	8r	.	.	.	8G/L	8g\L	(8B\L	(8d\L	(8b\L	(8dd\L	8r	8r	8r	8r
.	.	16B/JJ)	16G/JJ)	.	.	.	.	.	.	.	.	.	.	.	.	.	.
8EE\	8E\	(16G/LL	(16e/LL	4r	4r	4r	4r	8G/	8g\	8c\	8e\	8cc\	8ee\	4r	4r	4r	4r
.	.	16c/	16G/	.	.	.	.	.	.	.	.	.	.	.	.	.	.
8DD\J)	8D\J)	16G/	16f/	.	.	.	.	8G/J	8g\J	8d\J)	8f\J)	8dd\J)	8ff\J)	.	.	.	.
.	.	16d/JJ)	16G/JJ)	.	.	.	.	.	.	.	.	.	.	.	.	.	.
=43	=43	=43	=43	=43	=43	=43	=43	=43	=43	=43	=43	=43	=43	=43	=43	=43	=43
2CC/	2C/	(16c/LL	(16e/LL	2ee\	4C/	(2cc\	(2ee\	[2.G/	[2.g\	4c\	2e\	4cc\	2ee\	2.r	[2.gg\	2.r	2.r
.	.	16G/	16G/	.	.	.	.	.	.	.	.	.	.	.	.	.	.
.	.	16c/	16e/	.	.	.	.	.	.	.	.	.	.	.	.	.	.
.	.	16G/JJ)	16G/JJ)	.	.	.	.	.	.	.	.	.	.	.	.	.	.
.	.	(16c/LL	(16e/LL	.	4r	.	.	.	.	4r	.	4r	.	.	.	.	.
.	.	16G/	16G/	.	.	.	.	.	.	.	.	.	.	.	.	.	.
.	.	16c/	16e/	.	.	.	.	.	.	.	.	.	.	.	.	.	.
.	.	16G/JJ)	16G/JJ)	.	.	.	.	.	.	.	.	.	.	.	.	.	.
4GG\	4G\	(16B\LL	(16f/LL)	(16dd\LL)	4GG/	4g/)	4dd\)	.	.	4r	(16d\LL)	4r	(16dd\LL)	.	.	.	.
.	.	16c\	16e/	16cc\	.	.	.	.	.	.	16c\	.	16cc\	.	.	.	.
.	.	16B\	16f/	16dd\	.	.	.	.	.	.	16d\	.	16dd\	.	.	.	.
.	.	16g\JJ)	16d/JJ)	16b\JJ)	.	.	.	.	.	.	16B\JJ)	.	16b\JJ)	.	.	.	.
=44	=44	=44	=44	=44	=44	=44	=44	=44	=44	=44	=44	=44	=44	=44	=44	=44	=44
4CC/	4C/	4c\	4e/	16cc/LL	4C/	4e/	4cc\	2.G/]	2.g\]	2.r	16c\LL	2.r	16cc/LL	2.r	2.gg_\	2.r	2.r
.	.	.	.	16g'/	.	.	.	.	.	.	16G'\	.	16g'/	.	.	.	.
.	.	.	.	16g'/	.	.	.	.	.	.	16G'\	.	16g'/	.	.	.	.
.	.	.	.	16g'/JJ	.	.	.	.	.	.	16G'\JJ	.	16g'/JJ	.	.	.	.
4r	4r	4r	4r	(16f#/LL	4r	4r	4r	.	.	.	(16F#\LL	.	(16f#/LL	.	.	.	.
.	.	.	.	16g/	.	.	.	.	.	.	16G\	.	16g/	.	.	.	.
.	.	.	.	16a/	.	.	.	.	.	.	16A\	.	16a/	.	.	.	.
.	.	.	.	16b/JJ)	.	.	.	.	.	.	16B\JJ)	.	16b/JJ)	.	.	.	.
4r	4r	4r	4r	(16cc\LL	4r	4r	4r	.	.	.	(16c\LL	.	(16cc\LL	.	.	.	.
.	.	.	.	16dd\	.	.	.	.	.	.	16d\	.	16dd\	.	.	.	.
.	.	.	.	16ee-\	.	.	.	.	.	.	16e-\	.	16ee-\	.	.	.	.
.	.	.	.	16ee\JJ)	.	.	.	.	.	.	16e\JJ)	.	16ee\JJ)	.	.	.	.
=45	=45	=45	=45	=45	=45	=45	=45	=45	=45	=45	=45	=45	=45	=45	=45	=45	=45
2BBB/	2BB/	(16G/LL	(16d/LL	2ff\	4GG/	(2g/	(2dd\	[2.G/	[2.g\	2.r	2f\	2.r	2ff\	2.r	2.gg_\	2.r	2.r
.	.	16d/	16G/	.	.	.	.	.	.	.	.	.	.	.	.	.	.
.	.	16G/	16d/	.	.	.	.	.	.	.	.	.	.	.	.	.	.
.	.	16d/JJ)	16G/JJ)	.	.	.	.	.	.	.	.	.	.	.	.	.	.
.	.	(16G/LL	(16d/LL	.	4r	.	.	.	.	.	.	.	.	.	.	.	.
.	.	16d/	16G/	.	.	.	.	.	.	.	.	.	.	.	.	.	.
.	.	16G/	16d/	.	.	.	.	.	.	.	.	.	.	.	.	.	.
.	.	16d/JJ)	16G/JJ)	.	.	.	.	.	.	.	.	.	.	.	.	.	.
4CC/	4C/	(16G/LL	(16c/LL	(16ee\LL)	4C/	4cc\)	4ee\)	.	.	.	(16e\LL)	.	(16ee\LL)	.	.	.	.
.	.	16d/	16B/	16dd\	.	.	.	.	.	.	16d\	.	16dd\	.	.	.	.
.	.	16c/)	16c/	16ee\	.	.	.	.	.	.	16e\	.	16ee\	.	.	.	.
.	.	16c'/JJ	16e/JJ)	16cc\JJ)	.	.	.	.	.	.	16c\JJ)	.	16cc\JJ)	.	.	.	.
=46	=46	=46	=46	=46	=46	=46	=46	=46	=46	=46	=46	=46	=46	=46	=46	=46	=46
4GGG/	4GG/	4G/	4B/	16dd/LL	4GG/	4g/	4dd\	2.G/]	2.g\]	2.r	16d\LL	2.r	16dd/LL	2.r	2.gg\]	2.r	2.r
.	.	.	.	16g'/	.	.	.	.	.	.	16G'\	.	16g'/	.	.	.	.
.	.	.	.	16g'/	.	.	.	.	.	.	16G'\	.	16g'/	.	.	.	.
.	.	.	.	16g'/JJ	.	.	.	.	.	.	16G'\JJ	.	16g'/JJ	.	.	.	.
4r	4r	4r	4r	(16f#/LL	4r	4r	4r	.	.	.	(16F#\LL	.	(16f#/LL	.	.	.	.
.	.	.	.	16g/	.	.	.	.	.	.	16G\	.	16g/	.	.	.	.
.	.	.	.	16a/	.	.	.	.	.	.	16A\	.	16a/	.	.	.	.
.	.	.	.	16b/JJ)	.	.	.	.	.	.	16B\JJ)	.	16b/JJ)	.	.	.	.
4r	4r	4r	4r	(16cc\LL	4r	4r	4r	.	.	.	(16c\LL	.	(16cc\LL	.	.	.	.
.	.	.	.	16dd\	.	.	.	.	.	.	16d\	.	16dd\	.	.	.	.
.	.	.	.	16ee\	.	.	.	.	.	.	16e\	.	16ee\	.	.	.	.
.	.	.	.	16ff\JJ)	.	.	.	.	.	.	16f\JJ)	.	16ff\JJ)	.	.	.	.
=47	=47	=47	=47	=47	=47	=47	=47	=47	=47	=47	=47	=47	=47	=47	=47	=47	=47
!! "zu 2" is not indicated for m. 47 in the score but other winds are doubled,
!!        it is "f", and there is a lot of activity in the strings. An oversight?
24EE\LL	24B-\LL 24E\	24g'\LL	24c#'/LL	24gg'\LL	4GG/	2g/	2gg\	2.g\	2.g\	(2B-\	(2B-\	2.cc#\	[2gg\	2.cc#\	[2gg\	2gg\	2.ccc#\
24EE\	24B-\ 24E\	24g'\	24c#'/	24ee'\	.	.	.	.	.	.	.	.	.	.	.	.	.
24EE\	24B-\ 24E\	24g'\	24c#'/	24dd'\	.	.	.	.	.	.	.	.	.	.	.	.	.
24EE\	24B-\ 24E\	24g'\	24c#'/	24cc#'\	.	.	.	.	.	.	.	.	.	.	.	.	.
24EE\	24B-\ 24E\	24g'\	24c#'/	24b-'\	.	.	.	.	.	.	.	.	.	.	.	.	.
24EE\JJ	24B-\JJ 24E\	24g'\JJ	24c#'/JJ	24a'\JJ	.	.	.	.	.	.	.	.	.	.	.	.	.
24EE\LL	24B-\LL 24E\	24g'\LL	24c#'/LL	24g'/LL	4r	.	.	.	.	.	.	.	.	.	.	.	.
24EE\	24B-\ 24E\	24g'\	24c#'/	24f'/	.	.	.	.	.	.	.	.	.	.	.	.	.
24EE\	24B-\ 24E\	24g'\	24c#'/	24e'/	.	.	.	.	.	.	.	.	.	.	.	.	.
24EE\	24B-\ 24E\	24g'\	24c#'/	24d'/	.	.	.	.	.	.	.	.	.	.	.	.	.
24EE\	24B-\ 24E\	24g'\	24c#'/	24c#'/	.	.	.	.	.	.	.	.	.	.	.	.	.
24EE\JJ	24B-\JJ 24E\	24g'\JJ	24c#'/JJ	24B-'/JJ	.	.	.	.	.	.	.	.	.	.	.	.	.
24EE\LL	24A\LL 24E\	24g'\LL 24A\	24c#'/LL	24A'/LL	4r	4ee\	4ee\	.	.	4A\)	4A\)	.	8gg\L]	.	8gg\L]	4aa\	.
24EE\	24A\ 24E\	24g'\ 24A\	24c#'/	24c#'/	.	.	.	.	.	.	.	.	.	.	.	.	.
24EE\	24A\ 24E\	24g'\ 24A\	24c#'/	24e'/	.	.	.	.	.	.	.	.	.	.	.	.	.
24EE\	24A\ 24E\	24g'\ 24A\	24c#'/	24g'/	.	.	.	.	.	.	.	.	16ff\L	.	16ff\L	.	.
24EE\	24A\ 24E\	24g'\ 24A\	24c#'/	24f'/	.	.	.	.	.	.	.	.	.	.	.	.	.
.	.	.	.	.	.	.	.	.	.	.	.	.	16ee\JJ	.	16ee\JJ	.	.
24EE\JJ	24A\JJ 24E\	24g'\JJ 24A\	24c#'/JJ	24e'/JJ	.	.	.	.	.	.	.	.	.	.	.	.	.
=48	=48	=48	=48	=48	=48	=48	=48	=48	=48	=48	=48	=48	=48	=48	=48	=48	=48
24FF\LL	24A\LL 24F\	24f'\LL 24A\	24d'/LL	24d'\LL	2.r	4dd\	4dd\	2.a\	2.a\	2.A\	2.A\	2.dd\	2.dd\	(8dd\L	2.dd\	2.aa\	2.ddd\
24FF\	24A\ 24F\	24f'\ 24A\	24d'/	24aa'\	.	.	.	.	.	.	.	.	.	.	.	.	.
24FF\	24A\ 24F\	24f'\ 24A\	24d'/	24gg'\	.	.	.	.	.	.	.	.	.	.	.	.	.
24FF\	24A\ 24F\	24f'\ 24A\	24d'/	24ff'\	.	.	.	.	.	.	.	.	.	8a\J)	.	.	.
24FF\	24A\ 24F\	24f'\ 24A\	24d'/	24ee'\	.	.	.	.	.	.	.	.	.	.	.	.	.
24FF\JJ	24A\JJ 24F\	24f'\JJ 24A\	24d'/JJ	24dd'\JJ	.	.	.	.	.	.	.	.	.	.	.	.	.
24FF\LL	24A\LL 24F\	24f'\LL 24A\	24d'/LL	24cc#'\LL	.	4r	4r	.	.	.	.	.	.	2a/	.	.	.
24FF\	24A\ 24F\	24f'\ 24A\	24d'/	24dd'\	.	.	.	.	.	.	.	.	.	.	.	.	.
24FF\	24A\ 24F\	24f'\ 24A\	24d'/	24b-'\	.	.	.	.	.	.	.	.	.	.	.	.	.
24FF\	24A\ 24F\	24f'\ 24A\	24d'/	24a'\	.	.	.	.	.	.	.	.	.	.	.	.	.
24FF\	24A\ 24F\	24f'\ 24A\	24d'/	24g'\	.	.	.	.	.	.	.	.	.	.	.	.	.
24FF\JJ	24A\JJ 24F\	24f'\JJ 24A\	24d'/JJ	24f'\JJ	.	.	.	.	.	.	.	.	.	.	.	.	.
24FF\LL	24A\LL 24F\	24f'\LL 24A\	24d'/LL	24e'/LL	.	4r	4r	.	.	.	.	.	.	.	.	.	.
24FF\	24A\ 24F\	24f'\ 24A\	24d'/	24d'/	.	.	.	.	.	.	.	.	.	.	.	.	.
24FF\	24A\ 24F\	24f'\ 24A\	24d'/	24c#'/	.	.	.	.	.	.	.	.	.	.	.	.	.
24FF\	24A\ 24F\	24f'\ 24A\	24d'/	24d'/	.	.	.	.	.	.	.	.	.	.	.	.	.
24FF\	24A\ 24F\	24f'\ 24A\	24d'/	24f'/	.	.	.	.	.	.	.	.	.	.	.	.	.
24FF\JJ	24A\JJ 24F\	24f'\JJ 24A\	24d'/JJ	24a'/JJ	.	.	.	.	.	.	.	.	.	.	.	.	.
=49	=49	=49	=49	=49	=49	=49	=49	=49	=49	=49	=49	=49	=49	=49	=49	=49	=49
24FF#\LL	24c\LL 24F#\	24a'\LL	24d#'/LL	24aa'\LL	2.r	2.r	2.r	2.a\	2.a\	2c\	2c\	2.dd#\	[2aa\	2.dd#\	[2aa\	2aa\	2.ddd#\
24FF#\	24c\ 24F#\	24a'\	24d#'/	24ff#'\	.	.	.	.	.	.	.	.	.	.	.	.	.
24FF#\	24c\ 24F#\	24a'\	24d#'/	24ee'\	.	.	.	.	.	.	.	.	.	.	.	.	.
24FF#\	24c\ 24F#\	24a'\	24d#'/	24dd#'\	.	.	.	.	.	.	.	.	.	.	.	.	.
24FF#\	24c\ 24F#\	24a'\	24d#'/	24cc'\	.	.	.	.	.	.	.	.	.	.	.	.	.
24FF#\JJ	24c\JJ 24F#\	24a'\JJ	24d#'/JJ	24b'\JJ	.	.	.	.	.	.	.	.	.	.	.	.	.
24FF#\LL	24c\LL 24F#\	24a'\LL	24d#'/LL	24a'/LL	.	.	.	.	.	.	.	.	.	.	.	.	.
24FF#\	24c\ 24F#\	24a'\	24d#'/	24g'/	.	.	.	.	.	.	.	.	.	.	.	.	.
24FF#\	24c\ 24F#\	24a'\	24d#'/	24f#'/	.	.	.	.	.	.	.	.	.	.	.	.	.
24FF#\	24c\ 24F#\	24a'\	24d#'/	24e'/	.	.	.	.	.	.	.	.	.	.	.	.	.
24FF#\	24c\ 24F#\	24a'\	24d#'/	24d#'/	.	.	.	.	.	.	.	.	.	.	.	.	.
24FF#\JJ	24c\JJ 24F#\	24a'\JJ	24d#'/JJ	24c'/JJ	.	.	.	.	.	.	.	.	.	.	.	.	.
24FF#\LL	24B\LL 24F#\	24a'\LL 24B\	24d#'/LL	24B'/LL	.	.	.	.	.	4B\	4B\	.	8aa\L]	.	8aa\L]	4bb\	.
24FF#\	24B\ 24F#\	24a'\ 24B\	24d#'/	24d#'/	.	.	.	.	.	.	.	.	.	.	.	.	.
24FF#\	24B\ 24F#\	24a'\ 24B\	24d#'/	24f#'/	.	.	.	.	.	.	.	.	.	.	.	.	.
24FF#\	24B\ 24F#\	24a'\ 24B\	24d#'/	24a'/	.	.	.	.	.	.	.	.	16gg\L	.	16gg\L	.	.
24FF#\	24B\ 24F#\	24a'\ 24B\	24d#'/	24g'/	.	.	.	.	.	.	.	.	.	.	.	.	.
.	.	.	.	.	.	.	.	.	.	.	.	.	16ff#\JJ	.	16ff#\JJ	.	.
24FF#\JJ	24B\JJ 24F#\	24a'\JJ 24B\	24d#'/JJ	24f#'/JJ	.	.	.	.	.	.	.	.	.	.	.	.	.
=50	=50	=50	=50	=50	=50	=50	=50	=50	=50	=50	=50	=50	=50	=50	=50	=50	=50
24GG\LL	24B\LL 24G\	24g'\LL 24B\	24e'/LL	24e'\LL	2.r	2.r	2.r	2.b\	2.b\	2.B\	2.B\	2.ee\	2.ee\	(8ee\L	2.ee\	2.bb\	2.eee\
24GG\	24B\ 24G\	24g'\ 24B\	24e'/	24bb'\	.	.	.	.	.	.	.	.	.	.	.	.	.
24GG\	24B\ 24G\	24g'\ 24B\	24e'/	24aa'\	.	.	.	.	.	.	.	.	.	.	.	.	.
24GG\	24B\ 24G\	24g'\ 24B\	24e'/	24gg'\	.	.	.	.	.	.	.	.	.	8b\J)	.	.	.
24GG\	24B\ 24G\	24g'\ 24B\	24e'/	24ff#'\	.	.	.	.	.	.	.	.	.	.	.	.	.
24GG\JJ	24B\JJ 24G\	24g'\JJ 24B\	24e'/JJ	24ee'\JJ	.	.	.	.	.	.	.	.	.	.	.	.	.
24GG\LL	24B\LL 24G\	24g'\LL 24B\	24e'/LL	24dd#'\LL	.	.	.	.	.	.	.	.	.	2b\	.	.	.
24GG\	24B\ 24G\	24g'\ 24B\	24e'/	24ee'\	.	.	.	.	.	.	.	.	.	.	.	.	.
24GG\	24B\ 24G\	24g'\ 24B\	24e'/	24cc'\	.	.	.	.	.	.	.	.	.	.	.	.	.
24GG\	24B\ 24G\	24g'\ 24B\	24e'/	24b'\	.	.	.	.	.	.	.	.	.	.	.	.	.
24GG\	24B\ 24G\	24g'\ 24B\	24e'/	24a'\	.	.	.	.	.	.	.	.	.	.	.	.	.
24GG\JJ	24B\JJ 24G\	24g'\JJ 24B\	24e'/JJ	24g'\JJ	.	.	.	.	.	.	.	.	.	.	.	.	.
24GG\LL	24B\LL 24G\	24g'\LL 24B\	24e'/LL	24f#'/LL	.	.	.	.	.	.	.	.	.	.	.	.	.
24GG\	24B\ 24G\	24g'\ 24B\	24e'/	24e'/	.	.	.	.	.	.	.	.	.	.	.	.	.
24GG\	24B\ 24G\	24g'\ 24B\	24e'/	24d#'/	.	.	.	.	.	.	.	.	.	.	.	.	.
24GG\	24B\ 24G\	24g'\ 24B\	24e'/	24e'/	.	.	.	.	.	.	.	.	.	.	.	.	.
24GG\	24B\ 24G\	24g'\ 24B\	24e'/	24g'/	.	.	.	.	.	.	.	.	.	.	.	.	.
24GG\JJ	24B\JJ 24G\	24g'\JJ 24B\	24e'/JJ	24b'/JJ	.	.	.	.	.	.	.	.	.	.	.	.	.
=51	=51	=51	=51	=51	=51	=51	=51	=51	=51	=51	=51	=51	=51	=51	=51	=51	=51
24CC/LL	24C/LL	24g'\LL	24A#'/LL	24ee'\LL	2.r	2c/	2cc\	2.g\	2.g\	8g'\L	8g'\L	2ee\	2gg\	2.ee\	2.aa#\	2eee\	2eee\
24CC/	24C/	24g'\	24A#'/	24ee'\	.	.	.	.	.	.	.	.	.	.	.	.	.
24CC/	24C/	24g'\	24A#'/	24ee'\	.	.	.	.	.	.	.	.	.	.	.	.	.
24CC/	24C/	24f#'\	24A#'/	24ff#'\	.	.	.	.	.	8f#'\J	8f#'\J	.	.	.	.	.	.
24CC/	24C/	24f#'\	24A#'/	24ff#'\	.	.	.	.	.	.	.	.	.	.	.	.	.
24CC/JJ	24C/JJ	24f#'\JJ	24A#'/JJ	24ff#'\JJ	.	.	.	.	.	.	.	.	.	.	.	.	.
24CC/LL	24C/LL	24e'\LL	24A#'/LL	24gg'\LL	.	.	.	.	.	2e\	2e\	.	.	.	.	.	.
24CC/	24C/	24e'\	24A#'/	24gg'\	.	.	.	.	.	.	.	.	.	.	.	.	.
24CC/	24C/	24e'\	24A#'/	24gg'\	.	.	.	.	.	.	.	.	.	.	.	.	.
24CC/	24C/	24e'\	24A#'/	24ee'\	.	.	.	.	.	.	.	.	.	.	.	.	.
24CC/	24C/	24e'\	24A#'/	24ee'\	.	.	.	.	.	.	.	.	.	.	.	.	.
24CC/JJ	24C/JJ	24e'\JJ	24A#'/JJ	24ee'\JJ	.	.	.	.	.	.	.	.	.	.	.	.	.
24CC/LL	24C/LL	24e'\LL	24e'/LL	24cc'\LL	.	4r	4r	.	.	.	.	4ee\	4ee\	.	.	4aa#\	4aa#\
24CC/	24C/	24e'\	24e'/	24cc'\	.	.	.	.	.	.	.	.	.	.	.	.	.
24CC/	24C/	24e'\	24e'/	24cc'\	.	.	.	.	.	.	.	.	.	.	.	.	.
24CC/	24C/	24e'\	24e'/	24a#'\	.	.	.	.	.	.	.	.	.	.	.	.	.
24CC/	24C/	24e'\	24e'/	24a#'\	.	.	.	.	.	.	.	.	.	.	.	.	.
24CC/JJ	24C/JJ	24e'\JJ	24e'/JJ	24a#'\JJ	.	.	.	.	.	.	.	.	.	.	.	.	.
=52	=52	=52	=52	=52	=52	=52	=52	=52	=52	=52	=52	=52	=52	=52	=52	=52	=52
24BBB/LL	24BB/LL	24f#'\LL	24d#'/LL	24b'/LL	2.r	2.r	2.r	2.B/	2.b\	8d#'\L	8f#'\L	8dd#'\L	8ff#'\L	8dd#'\L	8bb'\L	8bb'\L	8bb'\L
24BBB/	24BB/	24f#'\	24d#'/	24b'/	.	.	.	.	.	.	.	.	.	.	.	.	.
24BBB/	24BB/	24f#'\	24d#'/	24b'/	.	.	.	.	.	.	.	.	.	.	.	.	.
24BBB/	24BB/	24g'\	24e'/	24a#'/	.	.	.	.	.	8e'\	8g'\	8ee'\	8gg'\	8ee'\	8gg'\	8aa#'\	8aa#'\
24BBB/	24BB/	24g'\	24e'/	24a#'/	.	.	.	.	.	.	.	.	.	.	.	.	.
24BBB/JJ	24BB/JJ	24g'\JJ	24e'/JJ	24a#'/JJ	.	.	.	.	.	.	.	.	.	.	.	.	.
24BBB/LL	24BB/LL	24f#'\LL	24d#'/LL	24b'/LL	.	.	.	.	.	8d#'\	8f#'\	8dd#'\	8ff#'\	8dd#'\	8ff#'\	8bb'\	8bb'\
24BBB/	24BB/	24f#'\	24d#'/	24b'/	.	.	.	.	.	.	.	.	.	.	.	.	.
24BBB/	24BB/	24f#'\	24d#'/	24b'/	.	.	.	.	.	.	.	.	.	.	.	.	.
24BBB/	24BB/	24g'\	24e'/	24a#'/	.	.	.	.	.	8e'\	8g'\	8ee'\	8gg'\	8ee'\	8gg'\	8aa#'\	8aa#'\
24BBB/	24BB/	24g'\	24e'/	24a#'/	.	.	.	.	.	.	.	.	.	.	.	.	.
24BBB/JJ	24BB/JJ	24g'\JJ	24e'/JJ	24a#'/JJ	.	.	.	.	.	.	.	.	.	.	.	.	.
24BBB/LL	24BB/LL	24f#'\LL	24d#'/LL	24b'/LL	.	.	.	.	.	8d#'\	8f#'\	8dd#'\	8ff#'\	8dd#'\	8ff#'\	8bb'\	8bb'\
24BBB/	24BB/	24f#'\	24d#'/	24b'/	.	.	.	.	.	.	.	.	.	.	.	.	.
24BBB/	24BB/	24f#'\	24d#'/	24b'/	.	.	.	.	.	.	.	.	.	.	.	.	.
24BBB/	24BB/	24g'\	24e'/	24a#'/	.	.	.	.	.	8e'\J	8g'\J	8ee'\J	8gg'\J	8ee'\J	8gg'\J	8aa#'\J	8aa#'\J
24BBB/	24BB/	24g'\	24e'/	24a#'/	.	.	.	.	.	.	.	.	.	.	.	.	.
24BBB/JJ	24BB/JJ	24g'\JJ	24e'/JJ	24a#'/JJ	.	.	.	.	.	.	.	.	.	.	.	.	.
=53	=53	=53	=53	=53	=53	=53	=53	=53	=53	=53	=53	=53	=53	=53	=53	=53	=53
4BBB'/	4BB'/	4f#'\	4d#'/	4b'\	2.r	2.r	2.r	4B'/	4b'\	4d#'\	4f#'\	4dd#\	4ff#'\	4dd#'\	4ff#'\	4bb'\	4bb'\
4BBB'/	4B'\	4b'\ 4f#\ 4B\	4b/ 4f#/ 4B'/	4bb'\ 4dd#\ 4f#\	.	.	.	4B'/	4b'\	4BB'/	4BB'/	4b\	4bb'\	4b'\	4bb'\	4bb'\	4bb'\
4r	4r	4r	4r	4r	.	.	.	4r	4r	4r	4r	4r	4r	4r	4r	4r	4r
=54	=54	=54	=54	=54	=54	=54	=54	=54	=54	=54	=54	=54	=54	=54	=54	=54	=54
2.r	4r	4r	4r	4..g/	2.r	2.r	2.r	2.r	2.r	2.r	2.r	2.r	2.r	2.r	2.r	2.r	2.r
.	4GG'/	4G'/	4B'/	.	.	.	.	.	.	.	.	.	.	.	.	.	.
.	.	.	.	(16d/	.	.	.	.	.	.	.	.	.	.	.	.	.
.	4G'\	4G'/	4B'/	8.b'\L)	.	.	.	.	.	.	.	.	.	.	.	.	.
.	.	.	.	16b'\Jk	.	.	.	.	.	.	.	.	.	.	.	.	.
=55	=55	=55	=55	=55	=55	=55	=55	=55	=55	=55	=55	=55	=55	=55	=55	=55	=55
2.r	(2c\	(2c\	(2e/	(4b\	2.r	2.r	2.r	2.r	2.r	2.r	2.r	2.r	2.r	2.r	2.r	2.r	2.r
.	.	.	.	4a/)	.	.	.	.	.	.	.	.	.	.	.	.	.
.	8.B\L	8.B/L	8.d/L	8.g/L	.	.	.	.	.	.	.	.	.	.	.	.	.
.	16B-\Jk)	16B-/Jk)	16c#/Jk)	16g'/Jk	.	.	.	.	.	.	.	.	.	.	.	.	.
=56	=56	=56	=56	=56	=56	=56	=56	=56	=56	=56	=56	=56	=56	=56	=56	=56	=56
(2.DD\	(2A\	(2A/	(2c/	(4g/	2.r	2.r	2.r	2.r	2.r	2.r	2.r	2.r	2.r	2.r	2.r	2.r	2.r
.	.	.	.	8.f#/L)	.	.	.	.	.	.	.	.	.	.	.	.	.
.	.	.	.	16g'/Jk	.	.	.	.	.	.	.	.	.	.	.	.	.
.	4G\)	4G/)	4B/)	(8.gTt/L	.	.	.	.	.	.	.	.	.	.	.	.	.
.	.	.	.	32f#/LL	.	.	.	.	.	.	.	.	.	.	.	.	.
.	.	.	.	32g/JJJ)	.	.	.	.	.	.	.	.	.	.	.	.	.
=57	=57	=57	=57	=57	=57	=57	=57	=57	=57	=57	=57	=57	=57	=57	=57	=57	=57
8DD'\)	8D'\	8F#'/	8A'/	8a'/)	2.r	2.r	2.r	2.r	2.r	2.r	2.r	2.r	2.r	4r	4r	2.r	4r
8r	8r	8r	8r	8r	.	.	.	.	.	.	.	.	.	.	.	.	.
4r	4r	4r	4r	4r	.	.	.	.	.	.	.	.	.	4r	4r	.	4r
4r	4r	4r	4r	4r	.	.	.	.	.	.	.	.	.	8.b\L	8.dd\L	.	8.gg'\L
.	.	.	.	.	.	.	.	.	.	.	.	.	.	16b-\Jk	16cc#\Jk	.	16gg'\Jk
=58	=58	=58	=58	=58	=58	=58	=58	=58	=58	=58	=58	=58	=58	=58	=58	=58	=58
2.r	2.r	2.r	2.r	2.r	2.r	2.r	2.r	2.r	2.r	2.r	2.d\	2.r	2.r	(2a/	(2cc\	2.r	(4gg\
.	.	.	.	.	.	.	.	.	.	.	.	.	.	.	.	.	8.ff#\L)
.	.	.	.	.	.	.	.	.	.	.	.	.	.	.	.	.	16gg'\Jk
.	.	.	.	.	.	.	.	.	.	.	.	.	.	4g/)	4b\)	.	(8.ggTt\L
.	.	.	.	.	.	.	.	.	.	.	.	.	.	.	.	.	32ff#\LL
.	.	.	.	.	.	.	.	.	.	.	.	.	.	.	.	.	32gg\JJJ)
=59	=59	=59	=59	=59	=59	=59	=59	=59	=59	=59	=59	=59	=59	=59	=59	=59	=59
2.r	4r	4r	2.r	2.r	2.r	2.r	2.r	2.r	2.r	4r	8D\	2.r	2.r	8f#/	8a/	2.r	8aa\)
.	.	.	.	.	.	.	.	.	.	.	8r	.	.	8r	8r	.	8r
.	4r	4r	.	.	.	.	.	.	.	8r	8r	.	.	4r	4r	.	4r
.	.	.	.	.	.	.	.	.	.	(8c\L	(8e\L	.	.	.	.	.	.
.	(4FF#/	[4D/	.	.	.	.	.	.	.	8B\	8d\	.	.	4r	4r	.	4r
.	.	.	.	.	.	.	.	.	.	8A\J)	8c\J)	.	.	.	.	.	.
=60	=60	=60	=60	=60	=60	=60	=60	=60	=60	=60	=60	=60	=60	=60	=60	=60	=60
2.r	16GG/LL)	8D/]	4..g/	2.r	2.r	2.r	2.r	2.r	2.r	4G\	4B\	2.r	2.r	2.r	2.r	2.r	2.r
.	(16G'/	.	.	.	.	.	.	.	.	.	.	.	.	.	.	.	.
.	16F#'/	8r	.	.	.	.	.	.	.	.	.	.	.	.	.	.	.
.	16E'/JJ)	.	.	.	.	.	.	.	.	.	.	.	.	.	.	.	.
.	(16D'/LL	4r	.	.	.	.	.	.	.	4r	4r	.	.	.	.	.	.
.	16C'/	.	.	.	.	.	.	.	.	.	.	.	.	.	.	.	.
.	16BB'/	.	.	.	.	.	.	.	.	.	.	.	.	.	.	.	.
.	16AA'/JJ)	.	(16d/	.	.	.	.	.	.	.	.	.	.	.	.	.	.
.	(16GG'/LL	4d\	8.b'\L)	.	.	.	.	.	.	4r	4r	.	.	.	.	.	.
.	16FF#'/	.	.	.	.	.	.	.	.	.	.	.	.	.	.	.	.
.	16EE'/	.	.	.	.	.	.	.	.	.	.	.	.	.	.	.	.
.	16DD'/JJ)	.	16b'\Jk	.	.	.	.	.	.	.	.	.	.	.	.	.	.
=61	=61	=61	=61	=61	=61	=61	=61	=61	=61	=61	=61	=61	=61	=61	=61	=61	=61
2.r	16CC'/LL	(8.e\L	(4b\	4..ee\	2.r	2.r	2.r	2.r	2.r	2.r	2.r	2.r	2.r	2.r	2.r	2.r	2.r
.	(16EE/	.	.	.	.	.	.	.	.	.	.	.	.	.	.	.	.
.	16FF#/	.	.	.	.	.	.	.	.	.	.	.	.	.	.	.	.
.	16GG#/JJ)	16d\Jk	.	.	.	.	.	.	.	.	.	.	.	.	.	.	.
.	(16AA/LL	4c\)	4a/	.	.	.	.	.	.	.	.	.	.	.	.	.	.
.	16GG#/	.	.	.	.	.	.	.	.	.	.	.	.	.	.	.	.
.	16AA/	.	.	.	.	.	.	.	.	.	.	.	.	.	.	.	.
.	16BB/JJ)	.	.	(16a\	.	.	.	.	.	.	.	.	.	.	.	.	.
.	(16C/LL	4e\	4g/)	8.aa'\L)	.	.	.	.	.	.	.	.	.	.	.	.	.
.	16BB/	.	.	.	.	.	.	.	.	.	.	.	.	.	.	.	.
.	16C/	.	.	.	.	.	.	.	.	.	.	.	.	.	.	.	.
.	16C#/JJ)	.	.	16aa'\Jk	.	.	.	.	.	.	.	.	.	.	.	.	.
=62	=62	=62	=62	=62	=62	=62	=62	=62	=62	=62	=62	=62	=62	=62	=62	=62	=62
2.r	(16D/LL	4d\	(4g/	[4aa\	2.r	2.r	2.r	2.r	2.r	2.r	2.r	2.r	2.r	2.r	2.r	2.r	2.r
.	16C#/	.	.	.	.	.	.	.	.	.	.	.	.	.	.	.	.
.	16D/	.	.	.	.	.	.	.	.	.	.	.	.	.	.	.	.
.	16DD/JJ)	.	.	.	.	.	.	.	.	.	.	.	.	.	.	.	.
.	8.D\L	4r	8.f#/L)	16aa\LL]	.	.	.	.	.	.	.	.	.	.	.	.	.
.	.	.	.	(16dd\	.	.	.	.	.	.	.	.	.	.	.	.	.
.	.	.	.	16cc#\	.	.	.	.	.	.	.	.	.	.	.	.	.
.	16E'\Jk	.	16g'/Jk	16dd\JJ	.	.	.	.	.	.	.	.	.	.	.	.	.
.	(8.ETt\L	4r	(8.gTt/L	16cc#\LL	.	.	.	.	.	.	.	.	.	.	.	.	.
.	.	.	.	16dd\	.	.	.	.	.	.	.	.	.	.	.	.	.
.	.	.	.	16cc#\	.	.	.	.	.	.	.	.	.	.	.	.	.
.	32D\LL	.	32f#/LL	16dd\JJ)	.	.	.	.	.	.	.	.	.	.	.	.	.
.	32E\JJJ)	.	32g/JJJ)	.	.	.	.	.	.	.	.	.	.	.	.	.	.
=63	=63	=63	=63	=63	=63	=63	=63	=63	=63	=63	=63	=63	=63	=63	=63	=63	=63
2.r	2.F#\	[2.d\	[2.a/	(16cc#\LL	2.r	2.r	2.r	2.r	2.r	2.r	2.r	2.r	2.r	2.r	2.r	2.r	2.r
.	.	.	.	16dd\	.	.	.	.	.	.	.	.	.	.	.	.	.
.	.	.	.	16ee\	.	.	.	.	.	.	.	.	.	.	.	.	.
.	.	.	.	16dd\JJ)	.	.	.	.	.	.	.	.	.	.	.	.	.
.	.	.	.	(16cc#\LL	.	.	.	.	.	.	.	.	.	.	.	.	.
.	.	.	.	16dd\	.	.	.	.	.	.	.	.	.	.	.	.	.
.	.	.	.	16ee\	.	.	.	.	.	.	.	.	.	.	.	.	.
.	.	.	.	16dd\JJ)	.	.	.	.	.	.	.	.	.	.	.	.	.
.	.	.	.	(16b\LL	.	.	.	.	.	.	.	.	.	.	.	.	.
.	.	.	.	16cc\	.	.	.	.	.	.	.	.	.	.	.	.	.
.	.	.	.	16dd\	.	.	.	.	.	.	.	.	.	.	.	.	.
.	.	.	.	16cc\JJ)	.	.	.	.	.	.	.	.	.	.	.	.	.
=64	=64	=64	=64	=64	=64	=64	=64	=64	=64	=64	=64	=64	=64	=64	=64	=64	=64
2.r	4..G\	4d\]	16a/LL]	[4b\	2.r	2.r	2.r	2.r	2.r	2.r	2.r	2.r	2.r	2.r	2.r	2.r	2.r
.	.	.	(16d/	.	.	.	.	.	.	.	.	.	.	.	.	.	.
.	.	.	16e/	.	.	.	.	.	.	.	.	.	.	.	.	.	.
.	.	.	16f#/JJ	.	.	.	.	.	.	.	.	.	.	.	.	.	.
.	.	4r	16g/LL	(16b\LL]	.	.	.	.	.	.	.	.	.	.	.	.	.
.	.	.	16a/	16cc\	.	.	.	.	.	.	.	.	.	.	.	.	.
.	.	.	16b/	16dd\	.	.	.	.	.	.	.	.	.	.	.	.	.
.	(16D\	.	16a/JJ)	16cc\JJ	.	.	.	.	.	.	.	.	.	.	.	.	.
.	8.B'\L)	4r	(16g/LL	16b/LL	.	.	.	.	.	.	.	.	.	.	.	.	.
.	.	.	16f#/	16a/	.	.	.	.	.	.	.	.	.	.	.	.	.
.	.	.	16e/	16g/	.	.	.	.	.	.	.	.	.	.	.	.	.
.	16B'\Jk	.	16d/JJ)	16f#/JJ)	.	.	.	.	.	.	.	.	.	.	.	.	.
=65	=65	=65	=65	=65	=65	=65	=65	=65	=65	=65	=65	=65	=65	=65	=65	=65	=65
2.r	(4B\	2.r	[2.c/	16e'/LL	2.r	2.r	2.r	2.r	2.r	2.r	2.r	2.r	2.r	2.r	2.r	2.r	2.r
.	.	.	.	(16f#/	.	.	.	.	.	.	.	.	.	.	.	.	.
.	.	.	.	16g/	.	.	.	.	.	.	.	.	.	.	.	.	.
.	.	.	.	16g#/JJ)	.	.	.	.	.	.	.	.	.	.	.	.	.
.	4A\	.	.	(16a\LL	.	.	.	.	.	.	.	.	.	.	.	.	.
.	.	.	.	16b\	.	.	.	.	.	.	.	.	.	.	.	.	.
.	.	.	.	16cc\	.	.	.	.	.	.	.	.	.	.	.	.	.
.	.	.	.	16cc#\JJ	.	.	.	.	.	.	.	.	.	.	.	.	.
.	4G\)	.	.	16dd\LL	.	.	.	.	.	.	.	.	.	.	.	.	.
.	.	.	.	16dd#\)	.	.	.	.	.	.	.	.	.	.	.	.	.
.	.	.	.	16ee'\	.	.	.	.	.	.	.	.	.	.	.	.	.
.	.	.	.	16ee'\JJ	.	.	.	.	.	.	.	.	.	.	.	.	.
=66	=66	=66	=66	=66	=66	=66	=66	=66	=66	=66	=66	=66	=66	=66	=66	=66	=66
2.r	4F#\	2.r	4c/]	(4.ee\	2.r	2.r	2.r	2.r	2.r	2.r	2.r	2.r	2.r	2.r	2.r	2.r	2.r
.	4f#\	.	[4cc\	.	.	.	.	.	.	.	.	.	.	.	.	.	.
.	.	.	.	8ee-\L	.	.	.	.	.	.	.	.	.	.	.	.	.
.	8g\L	.	(16cc/LL]	8dd\)	.	.	.	.	.	.	.	.	.	.	.	.	.
.	.	.	16b/	.	.	.	.	.	.	.	.	.	.	.	.	.	.
.	8B'\J	.	16a/	8dd\J	.	.	.	.	.	.	.	.	.	.	.	.	.
.	.	.	16g/JJ)	.	.	.	.	.	.	.	.	.	.	.	.	.	.
=67	=67	=67	=67	=67	=67	=67	=67	=67	=67	=67	=67	=67	=67	=67	=67	=67	=67
2.r	8c'\L	2.r	(16f#/LL	(16dd\LL	2.r	2.r	2.r	2.r	2.r	2.r	2.r	2.r	2.r	2.r	2.r	2.r	2.r
.	.	.	16e/	16cc\	.	.	.	.	.	.	.	.	.	.	.	.	.
.	8C'\J	.	16d/	16b\	.	.	.	.	.	.	.	.	.	.	.	.	.
.	.	.	16c/JJ)	16a\JJ)	.	.	.	.	.	.	.	.	.	.	.	.	.
.	2D\	.	(4B/	[4g/	.	.	.	.	.	.	.	.	.	.	.	.	.
.	.	.	8d/L	16g/LL]	.	.	.	.	.	.	.	.	.	.	.	.	.
.	.	.	.	(16f#/	.	.	.	.	.	.	.	.	.	.	.	.	.
.	.	.	8c/J)	16b/	.	.	.	.	.	.	.	.	.	.	.	.	.
.	.	.	.	16a/JJ)	.	.	.	.	.	.	.	.	.	.	.	.	.
=68	=68	=68	=68	=68	=68	=68	=68	=68	=68	=68	=68	=68	=68	=68	=68	=68	=68
2.r	4r	2.r	(2cc\	(4.ee\	2.r	2.r	2.r	2.r	2.r	2.r	2.r	2.r	2.r	2.r	2.r	2.r	2.r
.	(4f#\	.	.	.	.	.	.	.	.	.	.	.	.	.	.	.	.
.	.	.	.	8ee-\L	.	.	.	.	.	.	.	.	.	.	.	.	.
.	4g\)	.	4b\)	8dd\)	.	.	.	.	.	.	.	.	.	.	.	.	.
.	.	.	.	8dd'\J	.	.	.	.	.	.	.	.	.	.	.	.	.
=69	=69	=69	=69	=69	=69	=69	=69	=69	=69	=69	=69	=69	=69	=69	=69	=69	=69
2.r	4a\	4..d\	4cc\	4ff#\	2.r	2.r	2.r	2.r	2.r	2.r	4..d\	2.r	2.r	2.r	2.r	2.r	2.r
.	[2g\	.	4b\	4gg\	.	.	.	.	.	.	.	.	.	.	.	.	.
.	.	(16G/	.	.	.	.	.	.	.	.	(16G\	.	.	.	.	.	.
.	.	8.e'\L)	(4a#/	(4cc#\	.	.	.	.	.	.	8.e'\L)	.	.	.	.	.	.
.	.	16e'\Jk	.	.	.	.	.	.	.	.	16e'\Jk	.	.	.	.	.	.
=70	=70	=70	=70	=70	=70	=70	=70	=70	=70	=70	=70	=70	=70	=70	=70	=70	=70
2.r	8g'\]	8d'\	8b'\)	8dd'\)	2.r	2.r	2.r	2.r	2.r	2.r	8d'\	2.r	2.r	2.r	2.r	2.r	2.r
.	8r	8r	8r	8r	.	.	.	.	.	.	8r	.	.	.	.	.	.
.	4r	4r	4r	4r	.	.	.	.	.	.	4r	.	.	.	.	.	.
.	8D'\	8A'/	8c'/	8f#'/	.	.	.	.	.	.	4r	.	.	.	.	.	.
.	8r	8r	8r	8r	.	.	.	.	.	.	.	.	.	.	.	.	.
=71	=71	=71	=71	=71	=71	=71	=71	=71	=71	=71	=71	=71	=71	=71	=71	=71	=71
(2GG\	(2G\	(16B/LL	(16g/LL	2b\	4GG/	2g/	2dd\	(2g\	(2b\	(2G\	(2B\	(2b\	(2dd\	[2.dd\	[2.ddd\	2.r	2bb\
.	.	16D/	16d/	.	.	.	.	.	.	.	.	.	.	.	.	.	.
.	.	16B/	16g/	.	.	.	.	.	.	.	.	.	.	.	.	.	.
.	.	16D/JJ)	16d/JJ)	.	.	.	.	.	.	.	.	.	.	.	.	.	.
.	.	(16B/LL	(16g/LL	.	4r	.	.	.	.	.	.	.	.	.	.	.	.
.	.	16D/	16d/	.	.	.	.	.	.	.	.	.	.	.	.	.	.
.	.	16G/	16g/	.	.	.	.	.	.	.	.	.	.	.	.	.	.
.	.	16D/JJ)	16d/JJ)	.	.	.	.	.	.	.	.	.	.	.	.	.	.
4DD\)	4D\)	(16F#/LL	(16c/LL	(16a/LL)	4r	4dd\	4dd\	4d/)	4a\)	4F#\)	4c\)	4cc\)	4ff#\)	.	.	.	(16aa\LL)
.	.	16G/	16B/	16g/	.	.	.	.	.	.	.	.	.	.	.	.	16gg\
.	.	16F#/	16c/	16a/	.	.	.	.	.	.	.	.	.	.	.	.	16aa\
.	.	16A/JJ)	16A/JJ)	16f#/JJ)	.	.	.	.	.	.	.	.	.	.	.	.	16ff#\JJ)
=72	=72	=72	=72	=72	=72	=72	=72	=72	=72	=72	=72	=72	=72	=72	=72	=72	=72
4GGG/	4GG/	4G/	4B/	16g/LL	4GG/	4g/	4dd\	4B/	4g\	4G\	4B\	4b\	4gg\	2.dd_\	2.ddd_\	2.r	16gg\LL
.	.	.	.	16d'/	.	.	.	.	.	.	.	.	.	.	.	.	16dd'\
.	.	.	.	16d'/	.	.	.	.	.	.	.	.	.	.	.	.	16dd'\
.	.	.	.	16d'/JJ	.	.	.	.	.	.	.	.	.	.	.	.	16dd'\JJ
4r	4r	4r	4r	(16c#/LL	4r	4r	4r	4r	4r	4r	4r	4r	4r	.	.	.	(16cc#\LL
.	.	.	.	16d/	.	.	.	.	.	.	.	.	.	.	.	.	16dd\
.	.	.	.	16e/	.	.	.	.	.	.	.	.	.	.	.	.	16ee\
.	.	.	.	16f#/JJ)	.	.	.	.	.	.	.	.	.	.	.	.	16ff#\JJ)
4r	4r	4r	4r	(16g/LL	4r	4r	4r	4r	4r	4r	4r	4r	4r	.	.	.	(16gg\LL
.	.	.	.	16a/	.	.	.	.	.	.	.	.	.	.	.	.	16aa\
.	.	.	.	16b-/	.	.	.	.	.	.	.	.	.	.	.	.	16bb-\
.	.	.	.	16b/JJ)	.	.	.	.	.	.	.	.	.	.	.	.	16bb\JJ)
=73	=73	=73	=73	=73	=73	=73	=73	=73	=73	=73	=73	=73	=73	=73	=73	=73	=73
(2FF#\	(2F#\	(16D/LL	(16a/LL	2cc\	2.r	[2.dd\	[2.dd\	(2d/	(2a\	(2A\	(2c\	(2cc\	(2aa\	2.dd_\	2.ddd_\	2.r	2ccc\
.	.	16A/	16d/	.	.	.	.	.	.	.	.	.	.	.	.	.	.
.	.	16D/	16a/	.	.	.	.	.	.	.	.	.	.	.	.	.	.
.	.	16A/JJ)	16d/JJ)	.	.	.	.	.	.	.	.	.	.	.	.	.	.
.	.	(16D/LL	(16a/LL	.	.	.	.	.	.	.	.	.	.	.	.	.	.
.	.	16A/	16d/	.	.	.	.	.	.	.	.	.	.	.	.	.	.
.	.	16D/	16a/	.	.	.	.	.	.	.	.	.	.	.	.	.	.
.	.	16A/JJ)	16d/JJ)	.	.	.	.	.	.	.	.	.	.	.	.	.	.
4GG\)	4G\)	(16D/LL	(16g/LL	(16b/LL)	.	.	.	4g\)	4b\)	4G\)	4B\)	4b\)	4gg\)	.	.	.	(16bb\LL)
.	.	16d/	16f#/	16a/	.	.	.	.	.	.	.	.	.	.	.	.	16aa\
.	.	16D/	16g/	16b/	.	.	.	.	.	.	.	.	.	.	.	.	16bb\
.	.	16d/JJ)	16B/JJ)	16g/JJ)	.	.	.	.	.	.	.	.	.	.	.	.	16gg\JJ)
=74	=74	=74	=74	=74	=74	=74	=74	=74	=74	=74	=74	=74	=74	=74	=74	=74	=74
4DD\	4D\	4D/	4d/	16a/LL	2.r	4dd\]	4dd\]	4d/	4a\	4F#\	4A\	4a/	4ff#\	2.dd\]	2.ddd\]	2.r	16aa\LL
.	.	.	.	16d'/	.	.	.	.	.	.	.	.	.	.	.	.	16dd'\
.	.	.	.	16d'/	.	.	.	.	.	.	.	.	.	.	.	.	16dd'\
.	.	.	.	16d'/JJ	.	.	.	.	.	.	.	.	.	.	.	.	16dd'\JJ
4r	4r	4r	4r	(16c#/LL	.	4r	4r	4r	4r	4r	4r	4r	4r	.	.	.	(16cc#\LL
.	.	.	.	16d/	.	.	.	.	.	.	.	.	.	.	.	.	16dd\
.	.	.	.	16e/	.	.	.	.	.	.	.	.	.	.	.	.	16ee\
.	.	.	.	16f#/JJ)	.	.	.	.	.	.	.	.	.	.	.	.	16ff#\JJ)
4r	4r	4r	4r	(16g/LL	.	4r	4r	4r	4r	4r	4r	4r	4r	.	.	.	(16gg\LL
.	.	.	.	16a/	.	.	.	.	.	.	.	.	.	.	.	.	16aa\
.	.	.	.	16b/	.	.	.	.	.	.	.	.	.	.	.	.	16bb\
.	.	.	.	16cc/JJ)	.	.	.	.	.	.	.	.	.	.	.	.	16ccc\JJ)
=75	=75	=75	=75	=75	=75	=75	=75	=75	=75	=75	=75	=75	=75	=75	=75	=75	=75
(2BBB/	(2BB/	(16G\LL	(16g/LL	2dd\	4GG/	(2g/	(2dd\	2.g\	2.g\	2.G\	(2d\	(2dd\	(2gg\	2dd\	(4ddd\	2.r	2ddd\
.	.	16g\	16d/	.	.	.	.	.	.	.	.	.	.	.	.	.	.
.	.	16G\	16g/	.	.	.	.	.	.	.	.	.	.	.	.	.	.
.	.	16g\JJ)	16d/JJ)	.	.	.	.	.	.	.	.	.	.	.	.	.	.
.	.	(16G\LL	(16g/LL	.	4r	.	.	.	.	.	.	.	.	.	8bb\L	.	.
.	.	16g\	16d/	.	.	.	.	.	.	.	.	.	.	.	.	.	.
.	.	16G\	16g/	.	.	.	.	.	.	.	.	.	.	.	8gg\J)	.	.
.	.	16g\JJ)	16d/JJ)	.	.	.	.	.	.	.	.	.	.	.	.	.	.
4CC/)	4C/)	(16G\LL	(16e/LL	(16cc\LL)	4C/	4cc\)	4ee\)	.	.	.	4e\)	4cc\)	4aa\)	(16cc\LL	(16ee\LL	.	(16ccc\LL)
.	.	16g\	16d/	16b\	.	.	.	.	.	.	.	.	.	16b\	16dd\	.	16bb\
.	.	16G\	16e/	16cc\	.	.	.	.	.	.	.	.	.	16cc\	16ee\	.	16ccc\
.	.	16g\JJ)	16c/JJ)	16a\JJ)	.	.	.	.	.	.	.	.	.	16a\JJ)	16cc\JJ)	.	16aa\JJ)
=76	=76	=76	=76	=76	=76	=76	=76	=76	=76	=76	=76	=76	=76	=76	=76	=76	=76
2.DD\	2.D\	(16d\LL	(16B/LL	2g/	4GG/	2.dd\	2.dd\	(2g\	(2b\	(2G\	(2B\	(2b\	(2gg\	2g/	2b\	2.r	2gg\
.	.	16B\	16d/	.	.	.	.	.	.	.	.	.	.	.	.	.	.
.	.	16d\	16B/	.	.	.	.	.	.	.	.	.	.	.	.	.	.
.	.	16B\JJ)	16d/JJ)	.	.	.	.	.	.	.	.	.	.	.	.	.	.
.	.	(16d\LL	(16B/LL	.	4r	.	.	.	.	.	.	.	.	.	.	.	.
.	.	16B\	16d/	.	.	.	.	.	.	.	.	.	.	.	.	.	.
.	.	16d\	16B/	.	.	.	.	.	.	.	.	.	.	.	.	.	.
.	.	16B\JJ)	16d/JJ)	.	.	.	.	.	.	.	.	.	.	.	.	.	.
.	.	(16F#/LL	(16c/LL	(16a/LL)	4r	.	.	4d/)	4a\)	4F#\)	4A\)	4a/)	4ff#\)	(16a/LL	(16cc\LL	.	(16aa\LL)
.	.	16G/	16B/	16g/	.	.	.	.	.	.	.	.	.	16g/	16b\	.	16gg\
.	.	16F#/	16c/	16a/	.	.	.	.	.	.	.	.	.	16a/	16cc\	.	16aa\
.	.	16A/JJ)	16A/JJ)	16f#/JJ)	.	.	.	.	.	.	.	.	.	16f#/JJ)	16a\JJ)	.	16ff#\JJ)
=77	=77	=77	=77	=77	=77	=77	=77	=77	=77	=77	=77	=77	=77	=77	=77	=77	=77
8GG'\L	8G'\L	8G'/L	8B'/L	(16g/LL	4GG/	4g/	4dd\	4B/	4g\	8G'\L	8G'\L	4b\	4gg\	4g/	4g/	2.r	(16gg\LL
.	.	.	.	16d/)	.	.	.	.	.	.	.	.	.	.	.	.	16dd\)
16r	16r	16r	16r	16a'/	.	.	.	.	.	16r	16r	.	.	.	.	.	16aa'\
16DD'\Jk	16D'\Jk	16A'/Jk	16c'/Jk	16f#'/JJ	.	.	.	.	.	16D'\Jk	16D'\Jk	.	.	.	.	.	16ff#'\JJ
8GG'\L	8G'\L	8G'/L	8B'/L	(16g/LL	4r	4r	4r	4r	4r	8G'\L	8G'\L	4r	4r	4r	4r	.	(16gg\LL
.	.	.	.	16d/)	.	.	.	.	.	.	.	.	.	.	.	.	16dd\)
16r	16r	16r	16r	16a'/	.	.	.	.	.	16r	16r	.	.	.	.	.	16aa'\
16DD'\Jk	16D'\Jk	16A'/Jk	16c'/Jk	16f#'/JJ	.	.	.	.	.	16D'\Jk	16D'\Jk	.	.	.	.	.	16ff#'\JJ
8GG'\L	8G'\L	8G'/L	8B'/L	(16g/LL	4r	4r	4r	4r	4r	8G'\L	8G'\L	4r	4r	4r	4r	.	(16gg\LL
.	.	.	.	16d/)	.	.	.	.	.	.	.	.	.	.	.	.	16dd\)
16r	16r	16r	16r	16b'/	.	.	.	.	.	16r	16r	.	.	.	.	.	16bb'\
16BB'\Jk	16B'\Jk	16d'/Jk	16d'/Jk	16g#'/JJ	.	.	.	.	.	16d'\Jk	16d'\Jk	.	.	.	.	.	16gg#'\JJ
=78	=78	=78	=78	=78	=78	=78	=78	=78	=78	=78	=78	=78	=78	=78	=78	=78	=78
8C'\L	8c'\L	8F#'/L	8d'/L	(16a/LL	2.r	2.r	2.r	8d'/	8d'/	8F#'\L	8F#'\L	8f#'/	8a'/	2.r	2.r	2.r	(16aa\LL
.	.	.	.	16d/)	.	.	.	.	.	.	.	.	.	.	.	.	16dd\)
16r	16r	16r	16r	16b'/	.	.	.	8r	8r	16r	16r	8r	8r	.	.	.	16bb'\
16BB'\Jk	16B'\Jk	16d'/Jk	16d'/Jk	16g#'/JJ	.	.	.	.	.	16d'\Jk	16d'\Jk	.	.	.	.	.	16gg#'\JJ
8C'\L	8c'\L	8F#'/L	8d'/L	(16a/LL	.	.	.	8d'/	8d'/	8F#'\L	8F#'\L	8f#'/	8a'/	.	.	.	(16aa\LL
.	.	.	.	16d/)	.	.	.	.	.	.	.	.	.	.	.	.	16dd\)
16r	16r	16r	16r	16b'/	.	.	.	8r	8r	16r	16r	8r	8r	.	.	.	16bb'\
16BB'\Jk	16B'\Jk	16d'/Jk	16d'/Jk	16g#'/JJ	.	.	.	.	.	16d'\Jk	16d'\Jk	.	.	.	.	.	16gg#'\JJ
8C'\L	8c'\L	8F#'/L	8d'/L	(16a/LL	.	.	.	8d'/	8d'/	8F#'\L	8F#'\L	8f#'/	8a'/	.	.	.	(16aa\LL
.	.	.	.	16d/)	.	.	.	.	.	.	.	.	.	.	.	.	16dd\)
16r	16r	16r	16r	16cc'/	.	.	.	8r	8r	16r	16r	8r	8r	.	.	.	16ccc'\
16FF#'\Jk	16F#'\Jk	16d'/Jk	16d'/Jk	16a#'/JJ	.	.	.	.	.	16d'\Jk	16d'\Jk	.	.	.	.	.	16aa#'\JJ
=79	=79	=79	=79	=79	=79	=79	=79	=79	=79	=79	=79	=79	=79	=79	=79	=79	=79
8GG'\L	8G'\L	8G'/L	8d'/L	(16b\LL	2.r	8g'/	8dd'\	8g'\L	8g'\L	8G'\L	8G'\L	8g'/L	8b'\L	8g'/L	8b'\L	2.r	(16bb\LL
.	.	.	.	16g\)	.	.	.	.	.	.	.	.	.	.	.	.	16gg\)
16r	16r	16r	16r	16dd'\	.	8r	8r	16r	16r	16r	16r	16r	16r	16r	16r	.	16ddd'\
16FF'\Jk	16F'\Jk	16d'/Jk	16g'/Jk	16b'\JJ	.	.	.	16g'\Jk	16g'\Jk	16d'\Jk	16d'\Jk	16g'/Jk	16b'\Jk	16g/Jk	16b'\Jk	.	16bb'\JJ
8EE'\L	8E'\L	8e'\L	8G'/L	(16cc\LL	.	8cc'\	8ee'\	8g'\L	8g'\L	8e'\L	8e'\L	8g'/L	8cc'\L	8g'/L	8cc'\L	.	(16ccc\LL
.	.	.	.	16g\)	.	.	.	.	.	.	.	.	.	.	.	.	16gg\)
16r	16r	16r	16r	16ee'\	.	8r	8r	16r	16r	16r	16r	16r	16r	16r	16r	.	16eee'\
16C'\Jk	16c'\Jk	16e'\Jk	16g'/Jk	16cc'\JJ	.	.	.	16g'\Jk	16g'\Jk	16e'\Jk	16e'\Jk	16g'/Jk	16cc'\Jk	16g'/Jk	16cc'\Jk	.	16ccc'\JJ
8BB'\L	8B'\L	8f'\L	8G'/L	(16dd\LL	.	8g'/	8dd'\	8g'\L	8g'\L	8f'\L	8f'\L	8g'/L	8dd'\L	8g'/L	8dd'\L	.	(16ddd\LL
.	.	.	.	16b\)	.	.	.	.	.	.	.	.	.	.	.	.	16gg\)
16r	16r	16r	16r	16ff'\	.	8r	8r	16r	16r	16r	16r	16r	16r	16r	16r	.	16fff'\
16GG'\Jk	16G'\Jk	16B'\Jk	16g'/Jk	16dd'\JJ	.	.	.	16g'\Jk	16g'\Jk	16B'\Jk	16B'\Jk	16g'/Jk	16dd'\Jk	16g'/Jk	16dd'\Jk	.	16ddd'\JJ
=80	=80	=80	=80	=80	=80	=80	=80	=80	=80	=80	=80	=80	=80	=80	=80	=80	=80
8C'\L	8c'\L	8c'\L	8G'/L	(16ee\LL	2.r	8cc\	8ee'\	8g'/L	8g'/L	8c'\L	8c'\L	8g'/L	8ee'\L	8g'/L	8ee'\L	4r	(16eee\LL
.	.	.	.	16cc\)	.	.	.	.	.	.	.	.	.	.	.	.	16ccc\)
16r	16r	16r	16r	16aa'\	.	8r	8r	16r	16r	16r	16r	16r	16r	16r	16r	.	16aa'\
16C'\Jk	16c'\Jk	16a'\Jk	16d'/Jk	16ff#'\JJ	.	.	.	16d'/Jk	16d'/Jk	16c'\Jk	16c'\Jk	16cc'/Jk	16ff#'\Jk	16a'/Jk	16ff#'\Jk	.	16ff#'\JJ
8BB'\L	8B'\L	8g'\L	8dd'/L	(16gg\LL	.	8dd'\	8dd'\	8g'/L	8g'/L	8B'\L	8B'\L	8b'/L	8gg'\L	8dd'\L	8gg'\L	8r	(16gg\LL
.	.	.	.	16dd\)	.	.	.	.	.	.	.	.	.	.	.	.	16dd\)
16r	16r	16r	16r	16aa'\	.	8r	8r	16r	16r	16r	16r	16r	16r	16r	16r	16r	16aa'\
16C'\Jk	16c'\Jk	16a'\Jk	16d'/Jk	16ff#'\JJ	.	.	.	16d'/Jk	16d'/Jk	16c'\Jk	16c'\Jk	16a'/Jk	16ff#'\Jk	16dd'\Jk	16ff#'\Jk	16ff#'\	16ff#'\JJ
16BB'\LL	16B'\LL	16g'\LL	16dd'\LL	16gg'\LL	.	16dd'\LL	16dd'\LL	16g'/LL	16g'/LL	16B'\LL	16B'\LL	16dd'\LL	16gg'\LL	16dd'\LL	16gg'\LL	16gg'\LL	16gg'\LL
16FF#'\	16F#'\	16d'\	16cc'\	16aa'\	.	16dd'\	16dd'\	16d'/	16d'/	16F#'\	16F#'\	16cc'\	16aa'\	16a'\	16ccc'\	16aa'\	16aa'\
16GG'\	16G'\	16d'\	16b'\	16bb'\	.	16dd'\	16dd'\	16g'/	16g'/	16G'\	16G'\	16b'\	16bb'\	16b'\	16bb'\	16bb'\	16bb'\
16AA'\JJ	16A'\JJ	16d'\JJ	16a'\JJ	16ccc'\JJ	.	16dd'\JJ	16dd'\JJ	16d'/JJ	16d'/JJ	16A'\JJ	16A'\JJ	16a'\JJ	16ccc'\JJ	16cc'\JJ	16aa'\JJ	16ccc'\JJ	16ccc'\JJ
=81	=81	=81	=81	=81	=81	=81	=81	=81	=81	=81	=81	=81	=81	=81	=81	=81	=81
8BB\	8B\	8d\	8g/	8ddd\	2.r	8dd\	8dd\	8g\	8g\	8B\	8B\	8g/	8ddd\	8dd\	8gg\	8ddd\	8ddd\
16r	16r	16r	16r	16r	.	8r	8r	8r	8r	16r	16r	8r	8r	16r	16r	16r	16r
16GG#'\	16G#'\	16g#'\	16b'\	16eee'\	.	.	.	.	.	16e'\	16e'\	.	.	16b'\	16b'\	16eee\	16eee\
16AA'\LL	16A'\LL	16a'\LL	16cc'/LL	16ccc'\LL	.	4r	4r	4r	4r	16c'\LL	16c'\LL	4r	4r	16cc'\LL	16cc'\LL	16ccc'\LL	16ccc'\LL
16FF#'\	16F#'\	16f#'\	16a'/	16ddd'\	.	.	.	.	.	16d'\	16d'\	.	.	16aa'\	16aa'\	16ddd'\	16ddd'\
16GG'\	16G'\	16g'\	16b'/	16bb'\	.	.	.	.	.	16B'\	16B'\	.	.	16b'\	16b'\	16bb'\	16bb'\
16EE'\JJ	16E'\JJ	16e'\JJ	16g'/JJ	16ccc'\JJ	.	.	.	.	.	16c'\JJ	16c'\JJ	.	.	16gg'\JJ	16gg'\JJ	16ccc'\JJ	16ccc'\JJ
16FF#'\LL	16F#'\LL	16f#'\LL	16a'/LL	16aa'\LL	.	4r	4r	4r	4r	16A'\LL	16A'\LL	4r	4r	16a'\LL	16a'\LL	16aa'\LL	16aa'\LL
16DD#'\	16D#'\	16d#'\	16f#'/	16bb'\	.	.	.	.	.	16B'\	16B'\	.	.	16ff#'\	16ff#'\	16bb'\	16bb'\
16EE'\	16E'\	16e'\	16g'/	16gg'\	.	.	.	.	.	16G'\	16G'\	.	.	16g'\	16g'\	16gg'\	16gg'\
16CC#'\JJ	16C#'\JJ	16c#'\JJ	16e'/JJ	16aa'\JJ	.	.	.	.	.	16A'\JJ	16A'\JJ	.	.	16ee'\JJ	16ee'\JJ	16aa'\JJ	16aa'\JJ
=82	=82	=82	=82	=82	=82	=82	=82	=82	=82	=82	=82	=82	=82	=82	=82	=82	=82
8DD'\L	8D'\L	8d'\L	16d'/LL	16ff#'/LL	2.r	16cc'\LL	16cc'\LL	16d'/LL	16d'/LL	8F#'\L	8F#'\L	[2.d/	[2.cc\	8f#'/L	8f#'/L	8ff#'\L	8ff#'\L
.	.	.	16d'/ 16c'/	16d'/ 16c'/	.	32cc'\L	32cc'\L	32d'/L	32d'/L	.	.	.	.	.	.	.	.
.	.	.	.	.	.	32cc'\J	32cc'\J	32d'/J	32d'/J	.	.	.	.	.	.	.	.
16r	16r	16r	16d'/ 16c'/	16d'/ 16c'/	.	16cc'\	16cc'\	16d'/	16d'/	16r	16r	.	.	16r	16r	16r	16r
16EE-'\Jk	16E-'\Jk	16g'\Jk	16d'/JJ 16c'/	16d'/JJ 16c'/	.	16cc'\JJ	16cc'\JJ	16d'/JJ	16d'/JJ	16G'\Jk	16G'\Jk	.	.	16g'/Jk	16g'/Jk	16gg'\Jk	16gg'\Jk
8DD'\L	8D'\L	8f#'\L	16d'/LL 16c'/	16d'/LL 16c'/	.	16cc'\LL	16cc'\LL	16d'/LL	16d'/LL	8F#'\L	8F#'\L	.	.	8f#'/L	8f#'/L	8ff#'\L	8ff#'\L
.	.	.	16d'/ 16c'/	16d'/ 16c'/	.	16cc'\	16cc'\	16d'/	16d'/	.	.	.	.	.	.	.	.
16r	16r	16r	16d'/ 16c'/	16d'/ 16c'/	.	16cc'\	16cc'\	16d'/	16d'/	16r	16r	.	.	16r	16r	16r	16r
16GG'\Jk	16G'\Jk	16b-'\Jk	16d'/JJ 16c'/	16d'/JJ 16c'/	.	16cc'\JJ	16cc'\JJ	16d'/JJ	16d'/JJ	16B-'\Jk	16B-'\Jk	.	.	16b-'/Jk	16b-'/Jk	16bb-'\Jk	16bb-'\Jk
8FF#'\L	8F#'\L	8a'\L	16d'/LL 16c'/	16d'/LL 16c'/	.	16cc'\LL	16cc'\LL	16d'/LL	16d'/LL	8A'\L	8A'\L	.	.	8a'/L	8a'/L	8aa'\L	8aa'\L
.	.	.	16d'/ 16c'/	16d'/ 16c'/	.	16cc'\	16cc'\	16d'/	16d'/	.	.	.	.	.	.	.	.
16r	16r	16r	16d'/ 16c'/	16d'/ 16c'/	.	16cc'\	16cc'\	16d'/	16d'/	16r	16r	.	.	16r	16r	16r	16r
16BB-'\Jk	16B-'\Jk	16g'\Jk	16d'/JJ 16c'/	16d'/JJ 16c'/	.	16cc'\JJ	16cc'\JJ	16d'/JJ	16d'/JJ	16G'\Jk	16G'\Jk	.	.	16g'/Jk	16g'/Jk	16gg'\Jk	16gg'\Jk
=83	=83	=83	=83	=83	=83	=83	=83	=83	=83	=83	=83	=83	=83	=83	=83	=83	=83
8AA'\L	8A'\L	8f#'\L	16d'/LL 16c'/	16d'/LL 16c'/	2.r	16cc'\LL	16cc'\LL	16d'/LL	16d'/LL	8F#'\L	8F#'\L	2.d_/	2.cc_\	8f#'/L	8f#'/L	8ff#'\L	8ff#'\L
.	.	.	16d'/ 16c'/	16d'/ 16c'/	.	32cc'\L	32cc'\L	32d'/L	32d'/L	.	.	.	.	.	.	.	.
.	.	.	.	.	.	32cc'\J	32cc'\J	32d'/J	32d'/J	.	.	.	.	.	.	.	.
16r	16r	16r	16d'/ 16c'/	16d'/ 16c'/	.	16cc'\	16cc'\	16d'/	16d'/	16r	16r	.	.	16r	16r	16r	16r
16GG'\Jk	16G'\Jk	16b-'\Jk	16d'/JJ 16c'/	16d'/JJ 16c'/	.	16cc'\JJ	16cc'\JJ	16d'/JJ	16d'/JJ	16B-'\Jk	16B-'\Jk	.	.	16b-'/Jk	16b-'/Jk	16bb-'\Jk	16bb-'\Jk
8FF#'\L	8F#'\L	8a'\L	16d'/LL 16c'/	16d'/LL 16c'/	.	16cc'\LL	16cc'\LL	16d'/LL	16d'/LL	8A'\L	8A'\L	.	.	8a'/L	8a'/L	8aa'\L	8aa'\L
.	.	.	16d'/ 16c'/	16d'/ 16c'/	.	16cc'\	16cc'\	16d'/	16d'/	.	.	.	.	.	.	.	.
16r	16r	16r	16d'/ 16c'/	16d'/ 16c'/	.	16cc'\	16cc'\	16d'/	16d'/	16r	16r	.	.	16r	16r	16r	16r
16EE-'\Jk	16E-'\Jk	16g'\Jk	16d'/JJ 16c'/	16d'/JJ 16c'/	.	16cc'\JJ	16cc'\JJ	16d'/JJ	16d'/JJ	16G'\Jk	16G'\Jk	.	.	16g'/Jk	16g'/Jk	16gg'\Jk	16gg'\Jk
8DD'\L	8D'\L	8f#'\L	16d'/LL 16c'/	16d'/LL 16c'/	.	16cc'\LL	16cc'\LL	16d'/LL	16d'/LL	8F#'\L	8F#'\L	.	.	8f#'/L	8f#'/L	8ff#'\L	8ff#'\L
.	.	.	16d'/ 16c'/	16d'/ 16c'/	.	16cc'\	16cc'\	16d'/	16d'/	.	.	.	.	.	.	.	.
16r	16r	16r	16d'/ 16c'/	16d'/ 16c'/	.	16cc'\	16cc'\	16d'/	16d'/	16r	16r	.	.	16r	16r	16r	16r
16BB-'\Jk	16B-'\Jk	16g'\Jk	16d'/JJ 16c'/	16d'/JJ 16c'/	.	16cc'\JJ	16cc'\JJ	16d'/JJ	16d'/JJ	16B-'\Jk	16B-'\Jk	.	.	16g'/Jk	16g'/Jk	16gg'\Jk	16gg'\Jk
=84	=84	=84	=84	=84	=84	=84	=84	=84	=84	=84	=84	=84	=84	=84	=84	=84	=84
8AA'\L	8A'\L	8f#'\L	16d'/LL 16c'/	16d'/LL 16c'/	2.r	16cc'\LL	16cc'\LL	16d'/LL	16d'/LL	8A'\L	8A'\L	2.d_/	2.cc_\	8f#'/L	8f#'/L	8ff#'\L	8ff#'\L
.	.	.	16d'/ 16c'/	16d'/ 16c'/	.	32cc'\L	32cc'\L	32d'/L	32d'/L	.	.	.	.	.	.	.	.
.	.	.	.	.	.	32cc'\J	32cc'\J	32d'/J	32d'/J	.	.	.	.	.	.	.	.
16r	16r	16r	16d'/ 16c'/	16d'/ 16c'/	.	16cc'\	16cc'\	16d'/	16d'/	16r	16r	.	.	16r	16r	16r	16r
16GG'\Jk	16G'\Jk	16b-'\Jk	16d'/JJ 16c'/	16d'/JJ 16c'/	.	16cc'\JJ	16cc'\JJ	16d'/JJ	16d'/JJ	16G'\Jk	16G'\Jk	.	.	16b-'/Jk	16b-'/Jk	16bb-'\Jk	16bb-'\Jk
16FF#'\LL	16F#'\LL	16a'\LL	16d'/LL 16c'/	16d'/LL 16c'/	.	16cc'\LL	16cc'\LL	16d'/LL	16d'/LL	16F#'\LL	16F#'\LL	.	.	16a'/LL	16a'/LL	16aa'\LL	16aa'\LL
16BB-'\	16B-'\	16g'\	16d'/ 16c'/	16d'/ 16c'/	.	16cc'\	16cc'\	16d'/	16d'/	16B-'\	16B-'\	.	.	16g'/	16g'/	16gg'\	16gg'\
16AA'\	16A'\	16f#'\	16d'/ 16c'/	16d'/ 16c'/	.	16cc'\	16cc'\	16d'/	16d'/	16A'\	16A'\	.	.	16f#'/	16f#'/	16ff#'\	16ff#'\
16GG'\JJ	16G'\JJ	16b-'\JJ	16d'/JJ 16c'/	16d'/JJ 16c'/	.	16cc'\JJ	16cc'\JJ	16d'/JJ	16d'/JJ	16G'\JJ	16G'\JJ	.	.	16b-'/JJ	16b-'/JJ	16bb-'\JJ	16bb-'\JJ
16FF#'\LL	16F#'\LL	16a'\LL	16d'/LL 16c'/	16d'/LL 16c'/	.	16cc'\LL	16cc'\LL	16d'/LL	16d'/LL	16F#'\LL	16F#'\LL	.	.	16a'/LL	16a'/LL	16aa'\LL	16aa'\LL
16BB-'\	16B-'\	16g'\	16d'/ 16c'/	16d'/ 16c'/	.	16cc'\	16cc'\	16d'/	16d'/	16B-'\	16B-'\	.	.	16g'/	16g'/	16gg'\	16gg'\
16AA'\	16A'\	16f#'\	16d'/ 16c'/	16d'/ 16c'/	.	16cc'\	16cc'\	16d'/	16d'/	16A'\	16A'\	.	.	16f#'/	16f#'/	16ff#'\	16ff#'\
16GG'\JJ	16G'\JJ	16b-'\JJ	16d'/JJ 16c'/	16d'/JJ 16c'/	.	16cc'\JJ	16cc'\JJ	16d'/JJ	16d'/JJ	16G'\JJ	16G'\JJ	.	.	16b-'/JJ	16b-'/JJ	16bb-'\JJ	16bb-'\JJ
=85	=85	=85	=85	=85	=85	=85	=85	=85	=85	=85	=85	=85	=85	=85	=85	=85	=85
[2.FF#\	[2.F#\	[2.a\	[2.d/ [2.c/	16d'/LL 16c'/	2.r	4cc\	4cc\	4d/	4d/	4F#\	4F#\	4d/]	4cc\]	4a/	4a/	4aa\	4aa\
.	.	.	.	(16e-/	.	.	.	.	.	.	.	.	.	.	.	.	.
.	.	.	.	16d/)	.	.	.	.	.	.	.	.	.	.	.	.	.
.	.	.	.	(16g/JJ	.	.	.	.	.	.	.	.	.	.	.	.	.
.	.	.	.	16f#/LL)	.	4r	4r	4r	4r	4r	4r	4r	4r	4r	4r	4r	4r
.	.	.	.	(16b-/	.	.	.	.	.	.	.	.	.	.	.	.	.
.	.	.	.	16a/)	.	.	.	.	.	.	.	.	.	.	.	.	.
.	.	.	.	(16ee-/JJ	.	.	.	.	.	.	.	.	.	.	.	.	.
.	.	.	.	16dd\LL)	.	4r	4r	4r	4r	4r	4r	4r	4r	4r	4r	4r	4r
.	.	.	.	(16gg\	.	.	.	.	.	.	.	.	.	.	.	.	.
.	.	.	.	16ff#\)	.	.	.	.	.	.	.	.	.	.	.	.	.
.	.	.	.	16bb-'\JJ	.	.	.	.	.	.	.	.	.	.	.	.	.
=86	=86	=86	=86	=86	=86	=86	=86	=86	=86	=86	=86	=86	=86	=86	=86	=86	=86
8FF#\]	8F#\]	8a\]	8d/] 8c/]	(16aa\LL	2.r	2.r	2.r	8d/	8a\	8F#\	8c\	2.r	2.r	2.r	2.r	2.r	2.r
.	.	.	.	16gg\	.	.	.	.	.	.	.	.	.	.	.	.	.
8r	8r	8r	8r	16ff#\	.	.	.	8r	8r	8r	8r	.	.	.	.	.	.
.	.	.	.	16bb-\JJ)	.	.	.	.	.	.	.	.	.	.	.	.	.
4r	4r	4r	4r	(16aa\LL	.	.	.	8d/	8a\	8F#\	8c\	.	.	.	.	.	.
.	.	.	.	16gg\	.	.	.	.	.	.	.	.	.	.	.	.	.
.	.	.	.	16ff#\	.	.	.	8r	8r	8r	8r	.	.	.	.	.	.
.	.	.	.	16ccc\JJ)	.	.	.	.	.	.	.	.	.	.	.	.	.
4r	4r	4r	4r	(16aa\LL	.	.	.	8d/	8a\	8F#\	8c\	.	.	.	.	.	.
.	.	.	.	16gg\	.	.	.	.	.	.	.	.	.	.	.	.	.
.	.	.	.	16ff#\	.	.	.	8r	8r	8r	8r	.	.	.	.	.	.
.	.	.	.	16ddd\JJ)	.	.	.	.	.	.	.	.	.	.	.	.	.
=87	=87	=87	=87	=87	=87	=87	=87	=87	=87	=87	=87	=87	=87	=87	=87	=87	=87
2.r	2.r	2.r	2.r	(16ccc\LL	2.r	2.r	2.r	[2.d/	[2.a\	[2.F#\	[2.c\	2.r	2.r	2.r	2.r	2.r	2.r
.	.	.	.	16bb-\	.	.	.	.	.	.	.	.	.	.	.	.	.
.	.	.	.	16aa\	.	.	.	.	.	.	.	.	.	.	.	.	.
.	.	.	.	16eee-\JJ)	.	.	.	.	.	.	.	.	.	.	.	.	.
.	.	.	.	(16ccc\LL	.	.	.	.	.	.	.	.	.	.	.	.	.
.	.	.	.	16bb-\	.	.	.	.	.	.	.	.	.	.	.	.	.
.	.	.	.	16aa\	.	.	.	.	.	.	.	.	.	.	.	.	.
.	.	.	.	16ccc\JJ)	.	.	.	.	.	.	.	.	.	.	.	.	.
.	.	.	.	(16aa\LL	.	.	.	.	.	.	.	.	.	.	.	.	.
.	.	.	.	16gg\	.	.	.	.	.	.	.	.	.	.	.	.	.
.	.	.	.	16ff#\	.	.	.	.	.	.	.	.	.	.	.	.	.
.	.	.	.	16aa\JJ)	.	.	.	.	.	.	.	.	.	.	.	.	.
=88	=88	=88	=88	=88	=88	=88	=88	=88	=88	=88	=88	=88	=88	=88	=88	=88	=88
2.r	2.r	2.r	2.r	(16cc\LL	2.r	2.r	2.r	4d/]	8a\]	8F#\]	8c\]	2.r	2.r	2.r	2.r	2.r	2.r
.	.	.	.	16dd\	.	.	.	.	.	.	.	.	.	.	.	.	.
.	.	.	.	16ee-\	.	.	.	.	8r	8r	8r	.	.	.	.	.	.
.	.	.	.	16dd\JJ)	.	.	.	.	.	.	.	.	.	.	.	.	.
.	.	.	.	8ff'\L	.	.	.	4r	4r	4r	4r	.	.	.	.	.	.
.	.	.	.	8ee-'\	.	.	.	.	.	.	.	.	.	.	.	.	.
.	.	.	.	8dd'\	.	.	.	4r	4r	4r	4r	.	.	.	.	.	.
.	.	.	.	8cc'\J	.	.	.	.	.	.	.	.	.	.	.	.	.
=89	=89	=89	=89	=89	=89	=89	=89	=89	=89	=89	=89	=89	=89	=89	=89	=89	=89
4GG"\	4B"\ 4D"\ 4GG"\	4b"\ 4d"\ 4G"\	4b"/ 4d"/ 4G"/	2b\	2.r	2.r	2.r	16g\LL	16b\LL	16G\LL	16d\LL	16g/LL	16b/LL	2.r	2bb\	2.r	[2.ddd\
.	.	.	.	.	.	.	.	16g\	16b\	16G\	16d\	16g/	16b/	.	.	.	.
.	.	.	.	.	.	.	.	16g\	16b\	16G\	16d\	16g/	16b/	.	.	.	.
.	.	.	.	.	.	.	.	16g\	16b\	16G\	16d\	16g/	16b/	.	.	.	.
4r	4r	4r	4r	.	.	.	.	16g\	16b\	16G\	16d\	16g/	16b/	.	.	.	.
.	.	.	.	.	.	.	.	16g\	16b\	16G\	16d\	16g/	16b/	.	.	.	.
.	.	.	.	.	.	.	.	16g\	16b\	16G\	16d\	16g/	16b/	.	.	.	.
.	.	.	.	.	.	.	.	16g\JJ	16b\JJ	16G\JJ	16d\JJ	16g/JJ	16b/JJ	.	.	.	.
4DD"\	4A"\ 4D"\	4a"\ 4f#"\ 4d"\	4a"/ 4f#"/ 4d"/	(16a/LL)	.	.	.	16d/LL	16a\LL	16F#\LL	16d\LL	16a/LL	16cc\LL	.	(16aa\LL)	.	.
.	.	.	.	16g/	.	.	.	16d/	16a\	16F#\	16d\	16a/	16cc\	.	16gg\	.	.
.	.	.	.	16a/	.	.	.	16d/	16a\	16F#\	16d\	16a/	16cc\	.	16aa\	.	.
.	.	.	.	16f#/JJ)	.	.	.	16d/JJ	16a\JJ	16F#\JJ	16d\JJ	16a/JJ	16cc\JJ	.	16ff#\JJ)	.	.
=90	=90	=90	=90	=90	=90	=90	=90	=90	=90	=90	=90	=90	=90	=90	=90	=90	=90
4GGG"/	4B"\ 4D"\ 4GG"\	4b"\ 4d"\ 4G"\	4b"/ 4d"/ 4G"/	16g/LL	2.r	2.r	2.r	16B/LL	16g/LL	16G\LL	16d\LL	16g/LL	16b/LL	2.r	16gg\LL	2.r	2.ddd_\
.	.	.	.	16d'/	.	.	.	16B/	16d/	16G\	16d\	16g/	16b/	.	16dd'\	.	.
.	.	.	.	16d'/	.	.	.	16B/	16d/	16G\	16d\	16g/	16b/	.	16dd'\	.	.
.	.	.	.	16d'/JJ	.	.	.	16B/JJ	16d/JJ	16G\JJ	16d\JJ	16g/JJ	16b/JJ	.	16dd'\JJ	.	.
4r	4r	4r	4r	(16c#/LL	.	.	.	16B/LL	16d/LL	16G\LL	16d\LL	16g/LL	16b/LL	.	(16cc#\LL	.	.
.	.	.	.	16d/	.	.	.	16B/	16d/	16G\	16d\	16g/	16b/	.	16dd\	.	.
.	.	.	.	16e/	.	.	.	16B/	16d/	16G\	16d\	16g/	16b/	.	16ee\	.	.
.	.	.	.	16f#/JJ)	.	.	.	16B/JJ	16d/JJ	16G\JJ	16d\JJ	16g/JJ	16b/JJ	.	16ff#\JJ)	.	.
4GG"\	4B"\ 4D"\ 4GG"\	4b"\ 4d"\ 4G"\	4b"/ 4d"/ 4G"/	(16g/LL	.	.	.	16B/LL	16d/LL	16G\LL	16d\LL	16g/LL	16b/LL	.	(16gg\LL	.	.
.	.	.	.	16a/	.	.	.	16B/	16d/	16G\	16d\	16g/	16b/	.	16aa\	.	.
.	.	.	.	16b-/	.	.	.	16B/	16d/	16G\	16d\	16g/	16b/	.	16bb-\	.	.
.	.	.	.	16b/JJ)	.	.	.	16B/JJ	16d/JJ	16G\JJ	16d\JJ	16g/JJ	16b/JJ	.	16bb\JJ)	.	.
=91	=91	=91	=91	=91	=91	=91	=91	=91	=91	=91	=91	=91	=91	=91	=91	=91	=91
4DD"\	4A"\ 4D"\	4a"\ 4f#"\ 4d"\	4cc"/ 4f#"/ 4A"/	2cc\	2.r	2.r	2.r	16d/LL	16a\LL	16F#\LL	16d\LL	16f#/LL	16a/LL	2.r	2ccc\	2.r	2.ddd_\
.	.	.	.	.	.	.	.	16d/	16a\	16F#\	16d\	16f#/	16a/	.	.	.	.
.	.	.	.	.	.	.	.	16d/	16a\	16F#\	16d\	16f#/	16a/	.	.	.	.
.	.	.	.	.	.	.	.	16d/	16a\	16F#\	16d\	16f#/	16a/	.	.	.	.
4r	4r	4r	4r	.	.	.	.	16d/	16a\	16F#\	16d\	16f#/	16a/	.	.	.	.
.	.	.	.	.	.	.	.	16d/	16a\	16F#\	16d\	16f#/	16a/	.	.	.	.
.	.	.	.	.	.	.	.	16d/	16a\	16F#\	16d\	16f#/	16a/	.	.	.	.
.	.	.	.	.	.	.	.	16d/JJ	16a\JJ	16F#\JJ	16d\JJ	16f#/JJ	16a/JJ	.	.	.	.
4GG"\	4B"\ 4D"\ 4GG"\	4b"\ 4d"\ 4G"\	4b"/ 4g"/ 4G"/	(16b/LL)	.	.	.	16g\LL	16b\LL	16G\LL	16d\LL	16g/LL	16b/LL	.	(16bb\LL)	.	.
.	.	.	.	16a/	.	.	.	16g\	16b\	16G\	16d\	16g/	16b/	.	16aa\	.	.
.	.	.	.	16b/	.	.	.	16g\	16b\	16G\	16d\	16g/	16b/	.	16bb\	.	.
.	.	.	.	16g/JJ)	.	.	.	16g\JJ	16b\JJ	16G\JJ	16d\JJ	16g/JJ	16b/JJ	.	16gg\JJ)	.	.
=92	=92	=92	=92	=92	=92	=92	=92	=92	=92	=92	=92	=92	=92	=92	=92	=92	=92
4DD"\	4A"\ 4D"\	4a"\ 4f#"\ 4d"\	4a"/ 4f#"/ 4d"/	16a/LL	2.r	2.r	2.r	16d/LL	16a\LL	16D\LL	16d\LL	16f#/LL	16a/LL	2.r	16aa\LL	2.r	2.ddd\]
.	.	.	.	16d'/	.	.	.	16d/	16a\	16D\	16d\	16f#/	16a/	.	16dd'\	.	.
.	.	.	.	16d'/	.	.	.	16d/	16a\	16D\	16d\	16f#/	16a/	.	16dd'\	.	.
.	.	.	.	16d'/JJ	.	.	.	16d/	16a\	16D\	16d\	16f#/	16a/	.	16dd'\JJ	.	.
4r	4r	4r	4r	(16c#/LL	.	.	.	16d/	16a\	16D\	16d\	16f#/	16a/	.	(16cc#\LL	.	.
.	.	.	.	16d/	.	.	.	16d/	16a\	16D\	16d\	16f#/	16a/	.	16dd\	.	.
.	.	.	.	16e/	.	.	.	16d/	16a\	16D\	16d\	16f#/	16a/	.	16ee\	.	.
.	.	.	.	16f#/JJ)	.	.	.	16d/JJ	16a\JJ	16D\JJ	16d\JJ	16f#/	16a/	.	16ff#\JJ)	.	.
4CC"/	4C"/	4a"\ 4f#"\ 4c"\	4a"/ 4f#"/ 4c"/	(16g/LL	.	.	.	16d/LL	16a\LL	16c\LL	16c\LL	16f#/	16a/	.	(16gg\LL	.	.
.	.	.	.	16a/	.	.	.	16d/	16a\	16c\	16c\	16f#/	16a/	.	16aa\	.	.
.	.	.	.	16b/	.	.	.	16d/	16a\	16c\	16c\	16f#/	16a/	.	16bb\	.	.
.	.	.	.	16cc/JJ)	.	.	.	16d/JJ	16a\JJ	16c\JJ	16c\JJ	16f#/JJ	16a/JJ	.	16ccc\JJ)	.	.
=93	=93	=93	=93	=93	=93	=93	=93	=93	=93	=93	=93	=93	=93	=93	=93	=93	=93
4BBB"/	4BB"/	4b"\ 4g"\ 4G"\	4dd"\ 4g"\	2dd\	2.r	2.r	2.r	16g\LL	16g\LL	16B\LL	16B\LL	16g/LL	16dd\LL	2.r	2ddd\	2.r	2ddd\
.	.	.	.	.	.	.	.	16g\	16g\	16B\	16B\	16g/	16dd\	.	.	.	.
.	.	.	.	.	.	.	.	16g\	16g\	16B\	16B\	16g/	16dd\	.	.	.	.
.	.	.	.	.	.	.	.	16g\	16g\	16B\JJ	16B\JJ	16g/	16dd\	.	.	.	.
4r	4r	4r	4r	.	.	.	.	16g\	16g\	16BB/LL	16BB/LL	16g/	16dd\	.	.	.	.
.	.	.	.	.	.	.	.	16g\	16g\	16BB/	16BB/	16g/	16dd\	.	.	.	.
.	.	.	.	.	.	.	.	16g\	16g\	16BB/	16BB/	16g/	16dd\	.	.	.	.
.	.	.	.	.	.	.	.	16g\JJ	16g\JJ	16BB/JJ	16BB/JJ	16g/JJ	16dd\JJ	.	.	.	.
4CC"/	4C"/	4a"\ 4e"\ 4c"\	4cc"\ 4a"\	(16cc\LL)	.	.	.	16g\LL	16g\LL	16C/LL	16C/LL	16g/LL	(16ee\LL	.	(16ccc\LL)	.	(16eee\LL)
.	.	.	.	16b\	.	.	.	16g\	16g\	16C/	16C/	16g/	16dd\	.	16bb\	.	16ddd\
.	.	.	.	16cc\	.	.	.	16g\	16g\	16C/	16C/	16g/	16ee\	.	16ccc\	.	16eee\
.	.	.	.	16a\JJ)	.	.	.	16g\JJ	16g\JJ	16C/JJ	16C/JJ	16g/JJ	16cc\JJ)	.	16aa\JJ)	.	16ccc\JJ)
=94	=94	=94	=94	=94	=94	=94	=94	=94	=94	=94	=94	=94	=94	=94	=94	=94	=94
4DD"\	4D"\	4g"\ 4B"\	4b"/ 4g"/	2g/	2.r	2.r	2.r	16g\LL	16b\LL	16D\LL	16D\LL	16g/LL	16b\LL	2.r	2gg\	2.r	2bb\
.	.	.	.	.	.	.	.	16g\	16b\	16D\	16D\	16g/	16b\	.	.	.	.
.	.	.	.	.	.	.	.	16g\	16b\	16D\	16D\	16g/	16b\	.	.	.	.
.	.	.	.	.	.	.	.	16g\	16b\	16D\	16D\	16g/	16b\	.	.	.	.
4r	4r	4r	4r	.	.	.	.	16g\	16b\	16D\	16D\	16g/	16b\	.	.	.	.
.	.	.	.	.	.	.	.	16g\	16b\	16D\	16D\	16g/	16b\	.	.	.	.
.	.	.	.	.	.	.	.	16g\	16b\	16D\	16D\	16g/	16b\	.	.	.	.
.	.	.	.	.	.	.	.	16g\JJ	16b\JJ	16D\JJ	16D\JJ	16g/JJ	16b\JJ	.	.	.	.
4DD"\	4D"\	4a"\ 4f#"\ 4d"\	4a"/ 4f#"/ 4d"/	(16a/LL)	.	.	.	16d/LL	16a\LL	16D\LL	16D\LL	(16a/LL	(16cc\LL	.	(16aa\LL)	.	(16ff#\LL
.	.	.	.	16g/	.	.	.	16d/	16a\	16D\	16D\	16g/	16b\	.	16gg\	.	16gg\
.	.	.	.	16a/	.	.	.	16d/	16a\	16D\	16D\	16a/	16cc\	.	16aa\	.	16ff#\
.	.	.	.	16f#/JJ)	.	.	.	16d/JJ	16a\JJ	16D\JJ	16D\JJ	16f#/JJ)	16a\JJ)	.	16ff#\JJ)	.	16aa\JJ)
=95	=95	=95	=95	=95	=95	=95	=95	=95	=95	=95	=95	=95	=95	=95	=95	=95	=95
!! "zu 2" is not marked in Dover. An oversight? The other winds are doubled, it is 4 measures
!!    before the end, and it is ff, so I've taken the liberty of including the Flauto 2.
16BBB/LL	16BB/LL	16d/LL 16G/	16dd\LL 16g\	2gg\	4GG/	2g/	2dd\	16g\LL	16g\LL	16B\LL	16B\LL	16dd\LL	16gg\LL	2dd\	2gg\	2ggg\)	2ggg\)
16BBB/	16BB/	16d/ 16G/	16dd\ 16g\	.	.	.	.	16g\	16g\	16B\	16B\	16dd\	16gg\	.	.	.	.
16BBB/	16BB/	16d/ 16G/	16dd\ 16g\	.	.	.	.	16g\	16g\	16B\	16B\	16dd\	16gg\	.	.	.	.
16BBB/	16BB/	16d/ 16G/	16dd\ 16g\	.	.	.	.	16g\	16g\	16B\	16B\	16dd\	16gg\	.	.	.	.
16BBB/	16BB/	16d/ 16G/	16dd\ 16g\	.	4r	.	.	16g\	16g\	16B\	16B\	16dd\	16gg\	.	.	.	.
16BBB/	16BB/	16d/ 16G/	16dd\ 16g\	.	.	.	.	16g\	16g\	16B\	16B\	16dd\	16gg\	.	.	.	.
16BBB/	16BB/	16d/ 16G/	16dd\ 16g\	.	.	.	.	16g\	16g\	16B\	16B\	16dd\	16gg\	.	.	.	.
16BBB/JJ	16BB/JJ	16d/JJ 16G/	16dd\JJ 16g\	.	.	.	.	16g\JJ	16g\JJ	16B\JJ	16B\JJ	16dd\JJ	16gg\JJ	.	.	.	.
16CC/LL	16C/LL	16e/LL 16G/	(16cc\LL	(16ee\LL)	4r	4cc\	4ee\	16g\LL	16g\LL	16c\LL	16c\LL	(16cc\LL	(16ee\LL)	(16cc\LL	(16ee\LL)	(16eee\LL)	(16eee\LL)
16CC/	16C/	16e/ 16G/	16b\	16dd\	.	.	.	16g\	16g\	16c\	16c\	16b\	16dd\	16b\	16dd\	16ddd\	16ddd\
16CC/	16C/	16e/ 16G/	16cc\	16ee\	.	.	.	16g\	16g\	16c\	16c\	16cc\	16ee\	16cc\	16ee\	16eee\	16eee\
16CC/JJ	16C/JJ	16e/JJ 16G/	16a\JJ)	16cc\JJ)	.	.	.	16g\JJ	16g\JJ	16c\JJ	16c\JJ	16a\JJ)	16cc\JJ)	16a\JJ)	16cc\JJ)	16ccc\JJ)	16ccc\JJ)
=96	=96	=96	=96	=96	=96	=96	=96	=96	=96	=96	=96	=96	=96	=96	=96	=96	=96
16DD\LL	16D\LL	16d\LL	16g/LL	2b\	2.r	2.dd\	2.dd\	16g\LL	16b\LL	16d\LL	16d\LL	16g/LL	16b\LL	2g/	2b\	2ddd\	2ddd\
16DD\	16D\	16d\	16g/	.	.	.	.	16g\	16b\	16d\	16d\	16g/	16b\	.	.	.	.
16DD\	16D\	16d\	16g/	.	.	.	.	16g\	16b\	16d\	16d\	16g/	16b\	.	.	.	.
16DD\	16D\	16d\	16g/	.	.	.	.	16g\	16b\	16d\	16d\	16g/	16b\	.	.	.	.
16DD\	16D\	16d\	16g/	.	.	.	.	16g\	16b\	16d\	16d\	16g/	16b\	.	.	.	.
16DD\	16D\	16d\	16g/	.	.	.	.	16g\	16b\	16d\	16d\	16g/	16b\	.	.	.	.
16DD\	16D\	16d\	16g/	.	.	.	.	16g\	16b\	16d\	16d\	16g/	16b\	.	.	.	.
16DD\JJ	16D\JJ	16d\JJ	16g/JJ	.	.	.	.	16g\JJ	16b\JJ	16d\JJ	16d\JJ	16g/JJ	16b\JJ	.	.	.	.
16DD\LL	16D\LL	16c\LL	(16f#/LL)	(16a/LL)	.	.	.	16d/LL	16a\LL	16D\LL	16D\LL	(16f#/LL)	(16a\LL)	(16f#/LL)	(16a/LL)	(16aa\LL)	(16aa\LL)
16DD\	16D\	16c\	16e/	16g/	.	.	.	16d/	16a\	16D\	16D\	16e/	16g\	16e/	16g/	16gg\	16gg\
16DD\	16D\	16c\	16f#/)	16a/	.	.	.	16d/	16a\	16D\	16D\	16f#/)	16a\	16f#/)	16a/	16aa\	16aa\
16DD\JJ	16D\JJ	16c\JJ	16f#'/JJ	16dd/JJ)	.	.	.	16d/JJ	16a\JJ	16D\JJ	16D\JJ	16f#'/JJ	16dd\JJ)	16f#'/JJ	16dd/JJ)	16ddd\JJ)	16ddd\JJ)
=97	=97	=97	=97	=97	=97	=97	=97	=97	=97	=97	=97	=97	=97	=97	=97	=97	=97
8GG'\L	8G'\L	8B'/L	8g'/L	(16g/LL	8GG/	8g/	8dd\	8B/	8g\	8G\	8G\	8g/	8b\	8g'/L	8b'\L	(16gg\LL	(16gg\LL
.	.	.	.	16d/)	.	.	.	.	.	.	.	.	.	.	.	16dd\)	16dd\)
16r	16r	16r	16r	16a'/	8r	8r	8r	8r	8r	8r	8r	8r	8r	16r	16r	16aa'\	16aa'\
16DD'\J	16D'\Jk	16A'/Jk	16c'/Jk	16f#'/JJ	.	.	.	.	.	.	.	.	.	16cc'/Jk	16ff#'\Jk	16ff#'\JJ	16ff#'\JJ
8GG'\L	8G'\L	8B'/L	8B'/L	(16g/LL	4r	4r	4r	4r	4r	4r	4r	4r	4r	8b'\L	8gg'\L	(16gg\LL	(16gg\LL
.	.	.	.	16d/)	.	.	.	.	.	.	.	.	.	.	.	16dd\)	16dd\)
16r	16r	16r	16r	16a'/	.	.	.	.	.	.	.	.	.	16r	16r	16aa'\	16aa'\
16DD'\J	16D'\Jk	16A'/Jk	16c'/Jk	16f#'/JJ	.	.	.	.	.	.	.	.	.	16cc'\Jk	16ff#'\Jk	16ff#'\JJ	16ff#'\JJ
8GG'\L	8G'\L	8B'/L	8B'/L	(16g/LL	4r	4r	4r	4r	4r	4r	4r	4r	4r	8b'\L	8gg'\L	(16gg\LL	(16gg\LL
.	.	.	.	16d/)	.	.	.	.	.	.	.	.	.	.	.	16dd\)	16dd\)
16r	16r	16r	16r	16a'/	.	.	.	.	.	.	.	.	.	16r	16r	16aa'\	16aa'\
16DD'\J	16D'\Jk	16A'/Jk	16c'/Jk	16f#'/JJ	.	.	.	.	.	.	.	.	.	16cc'\Jk	16ff#'\Jk	16ff#'\JJ	16ff#'\JJ
=98	=98	=98	=98	=98	=98	=98	=98	=98	=98	=98	=98	=98	=98	=98	=98	=98	=98
8GG\	8G\	8B/	8B/	8g/	4r	4r	4r	4r	4r	4r	4r	4r	4r	8b\	8gg\	8gg\	8gg\
8r	8r	8r	8r	8r	.	.	.	.	.	.	.	.	.	8r	8r	8r	8r
4GGG/	4GG/	4b\ 4d\ 4G\	4gg\ 4b\ 4d\	4gg\ 4b\ 4d\	4GG/	4g/	4dd\	4B/	4g\	4GG/	4GG/	4b\	4gg\	4b\	4gg\	4ggg\	4ggg\
4r	4r	4r	4r	4r	4r	4r	4r	4r	4r	4r	4r	4r	4r	4r	4r	4r	4r
==|!	==|!	==|!	==|!	==|!	==|!	==|!	==|!	==|!	==|!	==|!	==|!	==|!	==|!	==|!	==|!	==|!	==|!
*-	*-	*-	*-	*-	*-	*-	*-	*-	*-	*-	*-	*-	*-	*-	*-	*-	*-
!!!CDT: 1732/3/31/-1809/5/31/
!!!OCO: Johann Peter Salomon
!!!OCY: Oesterreich
!!!ODT: 1793///
!!!MPD: 1794/2/10/
!!!OPC: London
!!!PPR: Ernst Eulenburg, Ltd.
!!!PPP: London
!!!PDT: 1880///
!!!AGN: symphony
!!!AST: classical, orchestral
!!!AMT: simple triple
!!!YOR: Ernst Praetorius, editor
!!!AIN: cbass cello clars cor fagot flt oboe timpa tromp viola violn
!!!EEV: 1.0
!!!RDT: 1995 March 25
!!!YER: 1996 August 10
!!!YEN: United States of America
!!!EFL: 2/4
!!!ENC: Frances Bennion
!!!EED: W.B. Hewlett
!!!VTS: 3967431185
